; generated by Slic3r 1.31.6-prusa3d-win64 on 2017-03-14 at 22:58:37

; external perimeters extrusion width = 0.45mm
; perimeters extrusion width = 0.45mm
; infill extrusion width = 0.45mm
; solid infill extrusion width = 0.45mm
; top infill extrusion width = 0.40mm

M107
M115 U3.0.9 ; tell printer latest fw version
M83  ; extruder relative mode
M104 S215 ; set extruder temp
M140 S55 ; set bed temp
M190 S55 ; wait for bed temp
M109 S215 ; wait for extruder temp
G28 W ; home all without mesh bed level
G80 ; mesh bed leveling
G1 Y-3.0 F1000.0 ; go outside pritn area
G1 X60.0 E9.0  F1000.0 ; intro line
G1 X100.0 E12.5  F1000.0 ; intro line
G21 ; set units to millimeters
G90 ; use absolute coordinates
M83 ; use relative distances for extrusion
G1 E-0.80000 F2100.00000
G1 Z0.200 F7200.000
G1 X102.419 Y87.208 F7200.000
G1 E0.80000 F2100.00000
M204 S1000
G1 F2100
G1 X103.066 Y86.519 E0.02963
G1 X103.651 Y85.975 E0.02506
G1 X104.264 Y85.474 E0.02483
G1 X112.566 Y79.436 E0.32188
G1 X113.502 Y78.818 E0.03513
G1 X114.200 Y78.429 E0.02507
G1 X114.922 Y78.084 E0.02508
G1 X115.660 Y77.787 E0.02494
G1 X116.423 Y77.534 E0.02520
G1 X117.186 Y77.334 E0.02476
G1 X117.977 Y77.178 E0.02526
G1 X118.758 Y77.075 E0.02471
G1 X119.560 Y77.019 E0.02519
G1 X130.440 Y77.019 E0.34115
G1 X131.239 Y77.074 E0.02511
G1 X132.023 Y77.178 E0.02479
G1 X132.812 Y77.333 E0.02521
G1 X133.577 Y77.534 E0.02482
G1 X134.340 Y77.787 E0.02519
G1 X135.078 Y78.084 E0.02495
G1 X135.798 Y78.428 E0.02501
G1 X136.371 Y78.743 E0.02049
G1 X137.044 Y79.164 E0.02489
G1 X145.736 Y85.474 E0.33677
G1 X146.347 Y85.974 E0.02476
G1 X146.934 Y86.519 E0.02512
G1 X147.485 Y87.098 E0.02505
G1 X147.993 Y87.705 E0.02483
G1 X148.472 Y88.356 E0.02534
G1 X148.900 Y89.023 E0.02484
G1 X149.288 Y89.720 E0.02500
G1 X149.632 Y90.439 E0.02500
G1 X149.930 Y91.180 E0.02506
G1 X150.085 Y91.626 E0.01480
G1 X153.252 Y101.390 E0.32183
G1 X153.486 Y102.302 E0.02953
G1 X153.632 Y103.089 E0.02510
G1 X153.726 Y103.874 E0.02478
G1 X153.767 Y104.527 E0.02053
G1 X153.772 Y105.327 E0.02507
G1 X153.712 Y106.275 E0.02978
G1 X153.608 Y107.059 E0.02481
G1 X153.485 Y107.702 E0.02053
G1 X153.293 Y108.470 E0.02482
G1 X153.155 Y108.925 E0.01491
G1 X149.930 Y118.821 E0.32635
G1 X149.632 Y119.561 E0.02500
G1 X149.288 Y120.280 E0.02499
G1 X148.974 Y120.851 E0.02043
G1 X148.554 Y121.523 E0.02485
G1 X148.083 Y122.179 E0.02534
G1 X147.581 Y122.792 E0.02483
G1 X147.038 Y123.378 E0.02505
G1 X146.459 Y123.928 E0.02503
G1 X145.853 Y124.435 E0.02478
G1 X137.434 Y130.564 E0.32653
G1 X136.498 Y131.182 E0.03514
G1 X135.798 Y131.572 E0.02513
G1 X135.081 Y131.915 E0.02493
G1 X134.340 Y132.213 E0.02503
G1 X133.583 Y132.464 E0.02501
G1 X132.812 Y132.667 E0.02499
G1 X132.023 Y132.822 E0.02521
G1 X131.242 Y132.925 E0.02470
G1 X130.448 Y132.980 E0.02497
G1 X119.560 Y132.981 E0.34138
G1 X118.761 Y132.926 E0.02511
G1 X117.977 Y132.822 E0.02479
G1 X117.188 Y132.667 E0.02521
G1 X116.423 Y132.466 E0.02481
G1 X115.660 Y132.213 E0.02519
G1 X114.922 Y131.916 E0.02494
G1 X114.202 Y131.572 E0.02502
G1 X113.629 Y131.257 E0.02049
G1 X112.954 Y130.834 E0.02498
G1 X104.265 Y124.527 E0.33663
G1 X103.651 Y124.025 E0.02487
G1 X103.066 Y123.481 E0.02506
G1 X102.515 Y122.902 E0.02505
G1 X101.917 Y122.179 E0.02941
G1 X101.445 Y121.521 E0.02540
G1 X101.024 Y120.848 E0.02488
G1 X100.645 Y120.149 E0.02494
G1 X100.310 Y119.427 E0.02497
G1 X99.915 Y118.374 E0.03527
G1 X96.748 Y108.610 E0.32183
G1 X96.546 Y107.844 E0.02483
G1 X96.391 Y107.056 E0.02521
G1 X96.288 Y106.272 E0.02479
G1 X96.233 Y105.473 E0.02511
G1 X96.233 Y104.527 E0.02965
G1 X96.288 Y103.728 E0.02511
G1 X96.391 Y102.944 E0.02479
G1 X96.514 Y102.298 E0.02063
G1 X96.707 Y101.530 E0.02483
G1 X99.915 Y91.626 E0.32641
G1 X100.070 Y91.181 E0.01479
G1 X100.369 Y90.437 E0.02514
G1 X100.711 Y89.722 E0.02484
G1 X101.026 Y89.149 E0.02051
G1 X101.529 Y88.355 E0.02947
G1 X101.917 Y87.821 E0.02072
G1 X102.381 Y87.254 E0.02295
G1 F5760
G1 X102.515 Y87.098 E-0.07137
G1 F5760
G1 X102.962 Y86.622 E-0.22624
G1 F5760
G1 X103.066 Y86.519 E-0.05055
G1 F5760
G1 X103.541 Y86.072 E-0.22601
G1 F5760
G1 X103.543 Y86.070 E-0.00090
G1 F5760
G1 X103.544 Y86.070 E-0.00024
G1 F5760
G1 X103.651 Y85.975 E-0.04970
G1 F5760
G1 X103.952 Y85.727 E-0.13499
G1 E-0.04000 F2100.00000
G1 X100.861 Y97.246 F7200.000
G1 E0.80000 F2100.00000
G1 F2100
G1 X100.913 Y97.085 E0.00529
G1 X100.840 Y96.394 E0.02180
G1 X100.809 Y95.693 E0.02200
G1 X100.839 Y94.711 E0.03080
G1 X100.914 Y94.010 E0.02211
G1 X100.981 Y93.589 E0.01338
G1 X101.194 Y92.637 E0.03059
G1 X101.399 Y91.963 E0.02206
G1 X101.543 Y91.563 E0.01334
G1 X101.815 Y90.912 E0.02212
G1 X102.061 Y90.410 E0.01754
G1 X102.260 Y90.040 E0.01316
G1 X102.623 Y89.443 E0.02191
G1 X102.862 Y89.090 E0.01337
G1 X103.289 Y88.525 E0.02220
G1 X103.936 Y87.792 E0.03064
G1 X104.236 Y87.492 E0.01332
G1 X104.757 Y87.021 E0.02204
G1 X105.533 Y86.419 E0.03078
G1 X106.119 Y86.031 E0.02204
G1 X106.726 Y85.683 E0.02195
G1 X107.106 Y85.489 E0.01336
G1 X108.007 Y85.099 E0.03080
G1 X108.406 Y84.956 E0.01327
G1 X109.076 Y84.751 E0.02198
G1 X110.029 Y84.538 E0.03062
G1 X110.166 Y84.439 E0.00529
G1 X110.662 Y83.601 E0.03053
G1 X111.065 Y83.024 E0.02207
G1 X111.503 Y82.472 E0.02209
G1 X111.974 Y81.952 E0.02199
G1 X112.475 Y81.463 E0.02197
G1 X113.011 Y81.003 E0.02213
G1 X113.687 Y80.500 E0.02642
G1 X114.520 Y79.977 E0.03083
G1 X115.397 Y79.530 E0.03086
G1 X116.043 Y79.260 E0.02196
G1 X116.711 Y79.029 E0.02217
G1 X117.384 Y78.843 E0.02187
G1 X117.799 Y78.750 E0.01334
G1 X118.493 Y78.631 E0.02209
G1 X119.189 Y78.556 E0.02193
G1 X119.893 Y78.525 E0.02210
G1 X120.596 Y78.539 E0.02206
G1 X121.298 Y78.596 E0.02208
G1 X121.990 Y78.697 E0.02191
G1 X122.680 Y78.842 E0.02212
G1 X123.355 Y79.029 E0.02196
G1 X124.022 Y79.260 E0.02214
G1 X124.916 Y79.647 E0.03052
G1 X125.084 Y79.647 E0.00528
G1 X125.979 Y79.260 E0.03057
G1 X126.642 Y79.030 E0.02200
G1 X127.051 Y78.911 E0.01336
G1 X127.733 Y78.750 E0.02196
G1 X128.700 Y78.597 E0.03070
G1 X129.403 Y78.539 E0.02211
G1 X130.104 Y78.525 E0.02199
G1 X130.531 Y78.539 E0.01339
G1 X131.234 Y78.596 E0.02210
G1 X132.202 Y78.750 E0.03073
G1 X132.880 Y78.910 E0.02184
G1 X133.553 Y79.115 E0.02208
G1 X133.957 Y79.260 E0.01346
G1 X134.604 Y79.530 E0.02197
G1 X135.479 Y79.976 E0.03080
G1 X136.078 Y80.341 E0.02198
G1 X136.430 Y80.580 E0.01335
G1 X136.990 Y81.003 E0.02202
G1 X137.524 Y81.462 E0.02206
G1 X138.028 Y81.954 E0.02206
G1 X138.403 Y82.366 E0.01750
G1 X138.675 Y82.688 E0.01321
G1 X139.099 Y83.249 E0.02206
G1 X139.488 Y83.837 E0.02208
G1 X139.834 Y84.439 E0.02179
G1 X139.971 Y84.538 E0.00528
G1 X140.923 Y84.751 E0.03059
G1 X141.593 Y84.955 E0.02197
G1 X142.253 Y85.202 E0.02210
G1 X142.893 Y85.488 E0.02196
G1 X143.272 Y85.682 E0.01335
G1 X144.113 Y86.178 E0.03061
G1 X144.466 Y86.418 E0.01339
G1 X145.030 Y86.845 E0.02218
G1 X145.764 Y87.492 E0.03067
G1 X146.066 Y87.794 E0.01338
G1 X146.534 Y88.312 E0.02190
G1 X147.138 Y89.090 E0.03090
G1 X147.378 Y89.444 E0.01339
G1 X147.740 Y90.040 E0.02188
G1 X148.185 Y90.913 E0.03073
G1 X148.354 Y91.302 E0.01328
G1 X148.600 Y91.960 E0.02204
G1 X148.874 Y92.902 E0.03075
G1 X148.967 Y93.320 E0.01344
G1 X149.086 Y94.010 E0.02193
G1 X149.178 Y94.988 E0.03080
G1 X149.191 Y95.689 E0.02200
G1 X149.178 Y96.117 E0.01342
G1 X149.087 Y97.085 E0.03049
G1 X149.139 Y97.246 E0.00529
G1 X149.607 Y97.763 E0.02188
G1 X150.042 Y98.310 E0.02191
G1 X150.443 Y98.884 E0.02196
G1 X150.810 Y99.487 E0.02214
G1 X151.138 Y100.112 E0.02211
G1 X151.424 Y100.752 E0.02200
G1 X151.671 Y101.410 E0.02203
G1 X151.875 Y102.081 E0.02199
G1 X152.038 Y102.769 E0.02215
G1 X152.156 Y103.459 E0.02196
G1 X152.230 Y104.154 E0.02192
G1 X152.261 Y104.856 E0.02201
G1 X152.230 Y105.845 E0.03103
G1 X152.156 Y106.539 E0.02190
G1 X152.037 Y107.235 E0.02213
G1 X151.876 Y107.914 E0.02190
G1 X151.670 Y108.591 E0.02216
G1 X151.425 Y109.247 E0.02197
G1 X151.256 Y109.637 E0.01332
G1 X150.945 Y110.267 E0.02205
G1 X150.594 Y110.878 E0.02209
G1 X150.205 Y111.465 E0.02206
G1 X149.782 Y112.024 E0.02199
G1 X149.139 Y112.754 E0.03052
G1 X149.087 Y112.915 E0.00529
G1 X149.178 Y113.886 E0.03058
G1 X149.191 Y114.586 E0.02195
G1 X149.178 Y115.017 E0.01352
G1 X149.086 Y115.990 E0.03066
G1 X149.019 Y116.408 E0.01328
G1 X148.875 Y117.093 E0.02192
G1 X148.601 Y118.039 E0.03089
G1 X148.457 Y118.438 E0.01332
G1 X148.186 Y119.086 E0.02202
G1 X147.741 Y119.960 E0.03073
G1 X147.377 Y120.557 E0.02192
G1 X147.139 Y120.908 E0.01331
G1 X146.535 Y121.687 E0.03090
G1 X146.064 Y122.208 E0.02201
G1 X145.764 Y122.508 E0.01331
G1 X145.032 Y123.154 E0.03062
G1 X144.693 Y123.416 E0.01342
G1 X144.113 Y123.821 E0.02218
G1 X143.272 Y124.319 E0.03066
G1 X142.643 Y124.629 E0.02200
G1 X142.253 Y124.798 E0.01332
G1 X141.595 Y125.044 E0.02203
G1 X140.924 Y125.249 E0.02199
G1 X139.971 Y125.462 E0.03063
G1 X139.834 Y125.561 E0.00529
G1 X139.489 Y126.162 E0.02174
G1 X139.098 Y126.752 E0.02219
G1 X138.675 Y127.312 E0.02201
G1 X138.218 Y127.844 E0.02198
G1 X137.522 Y128.540 E0.03086
G1 X136.994 Y128.994 E0.02185
G1 X136.432 Y129.419 E0.02209
G1 X135.843 Y129.808 E0.02212
G1 X135.235 Y130.158 E0.02201
G1 X134.606 Y130.469 E0.02201
G1 X133.957 Y130.740 E0.02204
G1 X133.293 Y130.970 E0.02202
G1 X132.613 Y131.158 E0.02214
G1 X131.925 Y131.303 E0.02203
G1 X131.235 Y131.403 E0.02188
G1 X130.537 Y131.461 E0.02196
G1 X129.821 Y131.475 E0.02246
G1 X129.119 Y131.443 E0.02201
G1 X128.426 Y131.369 E0.02185
G1 X128.011 Y131.303 E0.01320
G1 X127.318 Y131.157 E0.02220
G1 X126.644 Y130.971 E0.02191
G1 X125.978 Y130.740 E0.02212
G1 X125.084 Y130.353 E0.03052
G1 X124.916 Y130.353 E0.00529
G1 X124.024 Y130.739 E0.03048
G1 X123.622 Y130.884 E0.01338
G1 X122.946 Y131.089 E0.02214
G1 X122.266 Y131.250 E0.02191
G1 X121.302 Y131.403 E0.03060
G1 X120.457 Y131.466 E0.02657
G1 X119.467 Y131.461 E0.03106
G1 X118.494 Y131.369 E0.03064
G1 X117.802 Y131.251 E0.02200
G1 X117.384 Y131.157 E0.01345
G1 X116.710 Y130.971 E0.02191
G1 X116.043 Y130.740 E0.02215
G1 X115.396 Y130.469 E0.02198
G1 X114.521 Y130.024 E0.03079
G1 X113.917 Y129.656 E0.02218
G1 X113.343 Y129.255 E0.02194
G1 X112.796 Y128.819 E0.02193
G1 X112.476 Y128.538 E0.01336
G1 X111.974 Y128.048 E0.02201
G1 X111.503 Y127.527 E0.02202
G1 X110.901 Y126.751 E0.03078
G1 X110.513 Y126.164 E0.02208
G1 X110.166 Y125.561 E0.02181
G1 X110.030 Y125.462 E0.00529
G1 X109.351 Y125.319 E0.02176
G1 X108.668 Y125.130 E0.02222
G1 X108.006 Y124.901 E0.02196
G1 X107.357 Y124.629 E0.02205
G1 X106.728 Y124.318 E0.02202
G1 X106.120 Y123.969 E0.02198
G1 X105.306 Y123.416 E0.03084
G1 X104.756 Y122.978 E0.02207
G1 X104.236 Y122.508 E0.02197
G1 X103.745 Y122.005 E0.02204
G1 X103.289 Y121.474 E0.02196
G1 X102.862 Y120.910 E0.02217
G1 X102.622 Y120.556 E0.01339
G1 X102.259 Y119.958 E0.02195
G1 X101.933 Y119.337 E0.02198
G1 X101.543 Y118.438 E0.03072
G1 X101.313 Y117.772 E0.02212
G1 X101.126 Y117.096 E0.02198
G1 X100.937 Y116.131 E0.03082
G1 X100.839 Y115.289 E0.02658
G1 X100.809 Y114.588 E0.02201
G1 X100.822 Y113.886 E0.02202
G1 X100.913 Y112.915 E0.03058
G1 X100.861 Y112.754 E0.00529
G1 X100.217 Y112.023 E0.03058
G1 X99.955 Y111.686 E0.01336
G1 X99.554 Y111.110 E0.02200
G1 X99.056 Y110.268 E0.03070
G1 X98.862 Y109.888 E0.01335
G1 X98.576 Y109.249 E0.02196
G1 X98.242 Y108.323 E0.03087
G1 X98.124 Y107.914 E0.01335
G1 X97.963 Y107.234 E0.02191
G1 X97.844 Y106.536 E0.02220
G1 X97.752 Y105.564 E0.03062
G1 X97.739 Y105.137 E0.01340
G1 X97.752 Y104.435 E0.02199
G1 X97.810 Y103.735 E0.02203
G1 X97.910 Y103.043 E0.02194
G1 X98.124 Y102.084 E0.03079
G1 X98.329 Y101.410 E0.02209
G1 X98.474 Y101.008 E0.01339
G1 X98.863 Y100.111 E0.03066
G1 X99.190 Y99.487 E0.02209
G1 X99.407 Y99.120 E0.01337
G1 X99.956 Y98.313 E0.03061
G1 X100.394 Y97.762 E0.02206
G1 X100.820 Y97.289 E0.01995
G1 F5760
G1 X100.913 Y97.085 E-0.07769
G1 F5760
G1 X100.879 Y96.813 E-0.09498
G1 F5760
G1 X100.853 Y96.533 E-0.09740
G1 F5760
G1 X100.853 Y96.533 E-0.00003
G1 F5760
G1 X100.840 Y96.394 E-0.04845
G1 F5760
G1 X100.822 Y96.116 E-0.09657
G1 F5760
G1 X100.813 Y95.834 E-0.09746
G1 F5760
G1 X100.813 Y95.834 E-0.00002
G1 F5760
G1 X100.809 Y95.693 E-0.04896
G1 F5760
G1 X100.809 Y95.413 E-0.09716
G1 F5760
G1 X100.818 Y95.128 E-0.09852
G1 F5760
G1 X100.818 Y95.127 E-0.00052
G1 F5760
G1 X100.818 Y95.120 E-0.00225
G1 E-0.04000 F2100.00000
G1 X101.315 Y112.791 F7200.000
G1 E0.80000 F2100.00000
G1 F2100
G1 X101.259 Y112.619 E0.00568
G1 X100.954 Y112.303 E0.01376
G1 X100.511 Y111.787 E0.02132
G1 X100.101 Y111.245 E0.02129
G1 X99.728 Y110.680 E0.02124
G1 X99.389 Y110.091 E0.02131
G1 X99.201 Y109.723 E0.01298
G1 X98.826 Y108.857 E0.02958
G1 X98.603 Y108.212 E0.02140
G1 X98.488 Y107.814 E0.01297
G1 X98.282 Y106.893 E0.02960
G1 X98.184 Y106.223 E0.02122
G1 X98.129 Y105.546 E0.02131
G1 X98.116 Y105.131 E0.01302
G1 X98.129 Y104.453 E0.02125
G1 X98.217 Y103.515 E0.02956
G1 X98.332 Y102.843 E0.02137
G1 X98.423 Y102.438 E0.01302
G1 X98.686 Y101.532 E0.02956
G1 X98.827 Y101.142 E0.01302
G1 X99.088 Y100.517 E0.02123
G1 X99.518 Y99.674 E0.02966
G1 X99.871 Y99.094 E0.02128
G1 X100.258 Y98.539 E0.02123
G1 X100.511 Y98.213 E0.01294
G1 X100.955 Y97.697 E0.02134
G1 X101.259 Y97.381 E0.01374
G1 X101.315 Y97.209 E0.00568
G1 X101.216 Y96.364 E0.02667
G1 X101.186 Y95.687 E0.02125
G1 X101.199 Y95.004 E0.02143
G1 X101.254 Y94.331 E0.02115
G1 X101.353 Y93.654 E0.02148
G1 X101.558 Y92.736 E0.02949
G1 X101.756 Y92.086 E0.02131
G1 X101.994 Y91.448 E0.02135
G1 X102.159 Y91.067 E0.01300
G1 X102.459 Y90.459 E0.02128
G1 X102.797 Y89.873 E0.02121
G1 X103.171 Y89.307 E0.02127
G1 X103.584 Y88.761 E0.02145
G1 X104.024 Y88.250 E0.02116
G1 X104.498 Y87.763 E0.02132
G1 X105.002 Y87.308 E0.02129
G1 X105.532 Y86.886 E0.02122
G1 X106.093 Y86.494 E0.02147
G1 X106.903 Y86.016 E0.02948
G1 X107.513 Y85.714 E0.02135
G1 X108.141 Y85.452 E0.02133
G1 X108.780 Y85.230 E0.02123
G1 X109.438 Y85.048 E0.02140
G1 X110.271 Y84.882 E0.02664
G1 X110.418 Y84.775 E0.00568
G1 X110.834 Y84.034 E0.02665
G1 X111.366 Y83.250 E0.02971
G1 X111.790 Y82.717 E0.02134
G1 X112.064 Y82.407 E0.01296
G1 X112.534 Y81.925 E0.02115
G1 X113.040 Y81.468 E0.02136
G1 X113.787 Y80.889 E0.02964
G1 X114.352 Y80.515 E0.02123
G1 X114.707 Y80.305 E0.01294
G1 X115.552 Y79.874 E0.02975
G1 X116.176 Y79.613 E0.02122
G1 X116.566 Y79.473 E0.01297
G1 X117.217 Y79.275 E0.02133
G1 X117.875 Y79.119 E0.02122
G1 X118.807 Y78.971 E0.02957
G1 X119.218 Y78.932 E0.01296
G1 X119.899 Y78.902 E0.02135
G1 X120.578 Y78.915 E0.02131
G1 X121.257 Y78.971 E0.02133
G1 X121.925 Y79.069 E0.02117
G1 X122.592 Y79.209 E0.02137
G1 X123.244 Y79.390 E0.02122
G1 X123.889 Y79.613 E0.02140
G1 X124.514 Y79.874 E0.02123
G1 X124.910 Y80.066 E0.01380
G1 X125.091 Y80.066 E0.00568
G1 X125.487 Y79.874 E0.01382
G1 X126.113 Y79.612 E0.02126
G1 X126.753 Y79.391 E0.02125
G1 X127.151 Y79.275 E0.01299
G1 X128.073 Y79.069 E0.02962
G1 X128.742 Y78.971 E0.02120
G1 X129.153 Y78.932 E0.01296
G1 X130.098 Y78.902 E0.02965
G1 X130.778 Y78.932 E0.02134
G1 X131.192 Y78.971 E0.01303
G1 X132.125 Y79.119 E0.02962
G1 X132.780 Y79.274 E0.02110
G1 X133.431 Y79.472 E0.02133
G1 X133.824 Y79.613 E0.01308
G1 X134.449 Y79.874 E0.02123
G1 X135.292 Y80.304 E0.02969
G1 X135.871 Y80.656 E0.02124
G1 X136.213 Y80.889 E0.01298
G1 X136.961 Y81.468 E0.02967
G1 X137.464 Y81.924 E0.02128
G1 X137.757 Y82.216 E0.01296
G1 X138.381 Y82.924 E0.02959
G1 X138.791 Y83.466 E0.02131
G1 X139.023 Y83.808 E0.01296
G1 X139.375 Y84.386 E0.02121
G1 X139.582 Y84.775 E0.01383
G1 X139.729 Y84.881 E0.00567
G1 X140.562 Y85.048 E0.02663
G1 X141.221 Y85.231 E0.02144
G1 X141.860 Y85.452 E0.02123
G1 X142.487 Y85.714 E0.02129
G1 X143.096 Y86.015 E0.02130
G1 X143.683 Y86.353 E0.02124
G1 X144.249 Y86.727 E0.02127
G1 X144.794 Y87.139 E0.02143
G1 X145.307 Y87.580 E0.02120
G1 X145.795 Y88.056 E0.02138
G1 X146.247 Y88.557 E0.02116
G1 X146.670 Y89.088 E0.02127
G1 X147.204 Y89.873 E0.02978
G1 X147.541 Y90.460 E0.02124
G1 X147.842 Y91.068 E0.02126
G1 X148.104 Y91.695 E0.02131
G1 X148.327 Y92.339 E0.02134
G1 X148.568 Y93.262 E0.02993
G1 X148.712 Y94.063 E0.02551
G1 X148.785 Y94.740 E0.02136
G1 X148.814 Y95.683 E0.02958
G1 X148.785 Y96.362 E0.02131
G1 X148.685 Y97.209 E0.02673
