; generated by Slic3r 1.31.6-prusa3d-win64 on 2017-03-14 at 20:44:49

; external perimeters extrusion width = 0.45mm
; perimeters extrusion width = 0.45mm
; infill extrusion width = 0.45mm
; solid infill extrusion width = 0.45mm
; top infill extrusion width = 0.40mm

M107
M115 U3.0.9 ; tell printer latest fw version
M83  ; extruder relative mode
M104 S215 ; set extruder temp
M140 S55 ; set bed temp
M190 S55 ; wait for bed temp
M109 S215 ; wait for extruder temp
G28 W ; home all without mesh bed level
G80 ; mesh bed leveling
G1 Y-3.0 F1000.0 ; go outside pritn area
G1 X60.0 E9.0  F1000.0 ; intro line
G1 X100.0 E12.5  F1000.0 ; intro line
G21 ; set units to millimeters
G90 ; use absolute coordinates
M83 ; use relative distances for extrusion
G1 E-0.80000 F2100.00000
G1 Z0.200 F7200.000
G1 X107.970 Y90.488 F7200.000
G1 E0.80000 F2100.00000
M204 S1000
G1 F2100
G1 X108.468 Y89.923 E0.02364
G1 X109.448 Y88.915 E0.04407
G1 X110.488 Y87.970 E0.04407
G1 X110.991 Y87.554 E0.02044
G1 X111.586 Y87.092 E0.02364
G1 X112.738 Y86.285 E0.04408
G1 X113.936 Y85.553 E0.04404
G1 X114.508 Y85.238 E0.02048
G1 X115.769 Y84.619 E0.04405
G1 X117.067 Y84.079 E0.04405
G1 X117.776 Y83.824 E0.02364
G1 X119.121 Y83.412 E0.04409
G1 X119.753 Y83.250 E0.02045
G1 X121.127 Y82.963 E0.04402
G1 X121.872 Y82.845 E0.02364
G1 X123.271 Y82.693 E0.04412
G1 X124.674 Y82.628 E0.04404
G1 X126.080 Y82.652 E0.04409
G1 X127.480 Y82.764 E0.04404
G1 X128.128 Y82.845 E0.02049
G1 X128.873 Y82.963 E0.02364
G1 X130.247 Y83.250 E0.04402
G1 X131.603 Y83.622 E0.04408
G1 X132.224 Y83.824 E0.02046
G1 X132.933 Y84.079 E0.02364
G1 X134.231 Y84.619 E0.04406
G1 X135.492 Y85.238 E0.04405
G1 X136.064 Y85.553 E0.02047
G1 X137.262 Y86.285 E0.04404
G1 X137.886 Y86.709 E0.02364
G1 X138.443 Y87.115 E0.02163
G1 X139.512 Y87.970 E0.04289
G1 X140.552 Y88.915 E0.04407
G1 X141.085 Y89.448 E0.02364
G1 X142.005 Y90.460 E0.04288
G1 X142.446 Y90.991 E0.02163
G1 X142.908 Y91.587 E0.02364
G1 X143.715 Y92.738 E0.04408
G1 X144.447 Y93.936 E0.04404
G1 X144.762 Y94.508 E0.02048
G1 X145.381 Y95.769 E0.04405
G1 X145.921 Y97.067 E0.04406
G1 X146.176 Y97.776 E0.02364
G1 X146.588 Y99.121 E0.04409
G1 X146.750 Y99.753 E0.02045
G1 X147.037 Y101.127 E0.04402
G1 X147.236 Y102.520 E0.04412
G1 X147.307 Y103.271 E0.02365
G1 X147.372 Y104.674 E0.04404
G1 X147.348 Y106.080 E0.04408
G1 X147.236 Y107.480 E0.04404
G1 X147.155 Y108.128 E0.02049
G1 X147.037 Y108.873 E0.02365
G1 X146.750 Y110.247 E0.04401
G1 X146.388 Y111.567 E0.04290
G1 X146.176 Y112.224 E0.02164
G1 X145.921 Y112.933 E0.02364
G1 X145.381 Y114.231 E0.04405
G1 X144.762 Y115.492 E0.04405
G1 X144.447 Y116.064 E0.02048
G1 X144.064 Y116.713 E0.02364
G1 X143.291 Y117.886 E0.04404
G1 X142.908 Y118.414 E0.02045
G1 X142.030 Y119.512 E0.04408
G1 X141.532 Y120.077 E0.02364
G1 X140.552 Y121.085 E0.04407
G1 X139.512 Y122.030 E0.04407
G1 X139.009 Y122.446 E0.02044
G1 X138.414 Y122.908 E0.02364
G1 X137.262 Y123.715 E0.04408
G1 X136.064 Y124.447 E0.04404
G1 X135.492 Y124.762 E0.02048
G1 X134.231 Y125.381 E0.04405
G1 X132.933 Y125.921 E0.04405
G1 X132.224 Y126.176 E0.02364
G1 X130.879 Y126.588 E0.04409
G1 X130.247 Y126.750 E0.02045
G1 X128.873 Y127.037 E0.04402
G1 X128.128 Y127.155 E0.02364
G1 X126.729 Y127.307 E0.04412
G1 X125.326 Y127.372 E0.04404
G1 X124.674 Y127.372 E0.02045
G1 X123.271 Y127.307 E0.04404
G1 X122.520 Y127.236 E0.02365
G1 X121.872 Y127.155 E0.02049
G1 X120.488 Y126.915 E0.04402
G1 X119.753 Y126.750 E0.02364
G1 X118.397 Y126.378 E0.04409
G1 X117.776 Y126.176 E0.02046
G1 X116.461 Y125.681 E0.04406
G1 X115.180 Y125.104 E0.04405
G1 X114.508 Y124.762 E0.02364
G1 X113.287 Y124.064 E0.04411
G1 X112.114 Y123.291 E0.04404
G1 X111.587 Y122.908 E0.02044
G1 X110.489 Y122.030 E0.04407
G1 X109.923 Y121.532 E0.02364
G1 X108.915 Y120.552 E0.04407
G1 X107.995 Y119.540 E0.04289
G1 X107.554 Y119.009 E0.02163
G1 X107.092 Y118.413 E0.02364
G1 X106.285 Y117.262 E0.04408
G1 X105.553 Y116.064 E0.04404
G1 X105.238 Y115.492 E0.02047
G1 X104.896 Y114.820 E0.02364
G1 X104.319 Y113.539 E0.04405
G1 X103.824 Y112.224 E0.04406
G1 X103.422 Y110.915 E0.04291
G1 X103.250 Y110.247 E0.02163
G1 X102.963 Y108.873 E0.04402
G1 X102.764 Y107.480 E0.04412
G1 X102.693 Y106.729 E0.02364
G1 X102.629 Y105.364 E0.04285
G1 X102.628 Y104.674 E0.02164
G1 X102.652 Y103.920 E0.02364
G1 X102.764 Y102.520 E0.04404
G1 X102.845 Y101.872 E0.02049
G1 X103.085 Y100.488 E0.04402
G1 X103.250 Y99.753 E0.02364
G1 X103.622 Y98.397 E0.04408
G1 X103.824 Y97.776 E0.02046
G1 X104.319 Y96.461 E0.04406
G1 X104.619 Y95.769 E0.02364
G1 X105.238 Y94.508 E0.04405
G1 X105.553 Y93.936 E0.02047
G1 X106.285 Y92.738 E0.04404
G1 X107.092 Y91.586 E0.04408
G1 X107.932 Y90.535 E0.04220
G1 F5760
G1 X108.468 Y89.923 E-0.28187
G1 F5760
G1 X108.915 Y89.448 E-0.22575
G1 F5760
G1 X109.430 Y88.932 E-0.25237
G1 E-0.04000 F2100.00000
G1 X109.015 Y91.595 F7200.000
G1 E0.80000 F2100.00000
G1 F2100
G1 X109.888 Y90.618 E0.04109
G1 X110.618 Y89.888 E0.03237
G1 X111.810 Y88.837 E0.04981
G1 X112.626 Y88.205 E0.03237
G1 X113.704 Y87.461 E0.04109
G1 X115.072 Y86.652 E0.04982
G1 X115.992 Y86.183 E0.03237
G1 X117.191 Y85.655 E0.04107
G1 X118.686 Y85.117 E0.04982
G1 X119.947 Y84.759 E0.04111
G1 X121.227 Y84.482 E0.04106
G1 X122.524 Y84.286 E0.04111
G1 X123.552 Y84.189 E0.03237
G1 X125.139 Y84.139 E0.04980
G1 X126.171 Y84.171 E0.03237
G1 X127.476 Y84.286 E0.04109
G1 X129.046 Y84.534 E0.04981
G1 X130.322 Y84.829 E0.04109
G1 X131.314 Y85.117 E0.03238
G1 X132.809 Y85.655 E0.04982
G1 X133.756 Y86.065 E0.03236
G1 X134.928 Y86.652 E0.04109
G1 X136.061 Y87.312 E0.04111
G1 X137.149 Y88.041 E0.04107
G1 X138.405 Y89.015 E0.04982
G1 X139.179 Y89.697 E0.03237
G1 X140.112 Y90.618 E0.04109
G1 X141.163 Y91.810 E0.04982
G1 X141.795 Y92.626 E0.03237
G1 X142.539 Y93.704 E0.04109
G1 X143.348 Y95.072 E0.04982
G1 X143.935 Y96.244 E0.04109
G1 X144.447 Y97.450 E0.04108
G1 X144.883 Y98.686 E0.04110
G1 X145.171 Y99.677 E0.03237
G1 X145.518 Y101.227 E0.04980
G1 X145.714 Y102.524 E0.04111
G1 X145.811 Y103.552 E0.03238
G1 X145.861 Y105.139 E0.04981
G1 X145.811 Y106.448 E0.04107
G1 X145.714 Y107.476 E0.03236
G1 X145.466 Y109.046 E0.04983
G1 X145.171 Y110.323 E0.04109
G1 X144.883 Y111.314 E0.03237
G1 X144.345 Y112.809 E0.04982
G1 X143.817 Y114.008 E0.04107
G1 X143.348 Y114.928 E0.03237
G1 X142.688 Y116.061 E0.04111
G1 X141.959 Y117.149 E0.04107
G1 X140.985 Y118.405 E0.04983
G1 X140.112 Y119.382 E0.04109
G1 X139.382 Y120.112 E0.03237
G1 X138.190 Y121.163 E0.04982
G1 X137.374 Y121.795 E0.03237
G1 X136.296 Y122.539 E0.04109
G1 X134.928 Y123.348 E0.04982
G1 X134.008 Y123.817 E0.03237
G1 X132.809 Y124.345 E0.04107
G1 X131.579 Y124.797 E0.04109
G1 X131.144 Y124.933 E0.01429
G1 X130.053 Y125.241 E0.03556
G1 X128.773 Y125.518 E0.04106
G1 X127.753 Y125.679 E0.03237
G1 X126.448 Y125.811 E0.04112
G1 X124.861 Y125.861 E0.04980
G1 X123.552 Y125.811 E0.04108
G1 X122.524 Y125.714 E0.03238
G1 X120.954 Y125.466 E0.04982
G1 X119.947 Y125.241 E0.03236
G1 X118.686 Y124.883 E0.04111
G1 X117.191 Y124.345 E0.04982
G1 X115.992 Y123.817 E0.04107
G1 X115.072 Y123.348 E0.03237
G1 X113.939 Y122.688 E0.04111
G1 X112.851 Y121.959 E0.04107
G1 X111.595 Y120.985 E0.04982
G1 X110.821 Y120.303 E0.03237
G1 X109.888 Y119.382 E0.04109
G1 X108.837 Y118.190 E0.04982
G1 X108.204 Y117.374 E0.03237
G1 X107.461 Y116.295 E0.04109
G1 X106.652 Y114.928 E0.04982
G1 X106.183 Y114.008 E0.03237
G1 X105.655 Y112.809 E0.04108
G1 X105.203 Y111.579 E0.04109
G1 X104.878 Y110.492 E0.03556
G1 X104.759 Y110.053 E0.01428
G1 X104.482 Y108.773 E0.04106
G1 X104.286 Y107.476 E0.04111
G1 X104.189 Y106.448 E0.03238
G1 X104.139 Y104.861 E0.04981
G1 X104.189 Y103.551 E0.04108
G1 X104.286 Y102.524 E0.03237
G1 X104.534 Y100.954 E0.04982
G1 X104.829 Y99.677 E0.04109
G1 X105.117 Y98.686 E0.03237
G1 X105.655 Y97.191 E0.04982
G1 X106.183 Y95.992 E0.04107
G1 X106.652 Y95.072 E0.03237
G1 X107.461 Y93.704 E0.04982
G1 X108.205 Y92.626 E0.04109
G1 X108.977 Y91.641 E0.03922
G1 X109.302 Y91.840 F7200.000
G1 F2100
G1 X110.159 Y90.880 E0.04035
G1 X110.880 Y90.159 E0.03199
G1 X112.045 Y89.132 E0.04870
G1 X112.852 Y88.506 E0.03200
G1 X113.912 Y87.776 E0.04035
G1 X115.249 Y86.985 E0.04871
G1 X116.158 Y86.522 E0.03200
G1 X117.335 Y86.003 E0.04033
G1 X118.797 Y85.477 E0.04871
G1 X120.035 Y85.126 E0.04037
G1 X121.292 Y84.854 E0.04032
G1 X122.565 Y84.660 E0.04037
G1 X123.581 Y84.565 E0.03200
G1 X125.133 Y84.516 E0.04869
G1 X126.153 Y84.548 E0.03200
G1 X127.435 Y84.660 E0.04034
G1 X128.969 Y84.904 E0.04870
G1 X130.223 Y85.192 E0.04034
G1 X131.203 Y85.477 E0.03201
G1 X132.665 Y86.003 E0.04871
G1 X133.601 Y86.409 E0.03199
G1 X134.751 Y86.985 E0.04034
G1 X135.864 Y87.633 E0.04037
G1 X136.932 Y88.349 E0.04033
G1 X138.160 Y89.302 E0.04871
G1 X138.925 Y89.976 E0.03200
G1 X139.841 Y90.880 E0.04035
G1 X140.868 Y92.046 E0.04870
G1 X141.494 Y92.852 E0.03200
G1 X142.224 Y93.912 E0.04035
G1 X143.015 Y95.249 E0.04871
G1 X143.591 Y96.399 E0.04034
G1 X144.095 Y97.583 E0.04034
G1 X144.523 Y98.797 E0.04036
G1 X144.808 Y99.777 E0.03200
G1 X145.146 Y101.292 E0.04868
G1 X145.340 Y102.565 E0.04037
G1 X145.435 Y103.581 E0.03200
G1 X145.484 Y105.133 E0.04869
G1 X145.435 Y106.419 E0.04033
G1 X145.340 Y107.435 E0.03199
G1 X145.096 Y108.969 E0.04871
G1 X144.808 Y110.223 E0.04035
G1 X144.523 Y111.203 E0.03200
G1 X143.997 Y112.665 E0.04871
G1 X143.478 Y113.842 E0.04033
G1 X143.015 Y114.751 E0.03200
G1 X142.367 Y115.864 E0.04036
G1 X141.651 Y116.932 E0.04033
G1 X140.698 Y118.160 E0.04872
G1 X139.841 Y119.120 E0.04035
G1 X139.120 Y119.841 E0.03200
G1 X137.954 Y120.868 E0.04870
G1 X137.148 Y121.494 E0.03200
G1 X136.089 Y122.224 E0.04035
G1 X134.751 Y123.015 E0.04871
G1 X133.842 Y123.478 E0.03200
G1 X132.665 Y123.997 E0.04033
G1 X131.457 Y124.440 E0.04035
G1 X131.039 Y124.571 E0.01373
G1 X129.965 Y124.874 E0.03500
G1 X128.708 Y125.146 E0.04032
G1 X127.700 Y125.306 E0.03200
G1 X126.419 Y125.435 E0.04037
G1 X124.867 Y125.484 E0.04869
G1 X123.581 Y125.435 E0.04034
G1 X122.565 Y125.340 E0.03200
G1 X121.031 Y125.096 E0.04870
G1 X120.035 Y124.874 E0.03199
G1 X118.797 Y124.523 E0.04036
G1 X117.335 Y123.997 E0.04871
G1 X116.158 Y123.478 E0.04033
G1 X115.249 Y123.015 E0.03200
G1 X114.136 Y122.367 E0.04037
G1 X113.068 Y121.651 E0.04033
G1 X111.840 Y120.699 E0.04871
G1 X111.075 Y120.024 E0.03200
G1 X110.159 Y119.120 E0.04034
G1 X109.132 Y117.954 E0.04871
G1 X108.506 Y117.148 E0.03200
G1 X107.776 Y116.088 E0.04035
G1 X106.985 Y114.751 E0.04870
G1 X106.409 Y113.601 E0.04034
G1 X106.003 Y112.665 E0.03199
G1 X105.477 Y111.203 E0.04871
G1 X105.126 Y109.965 E0.04036
G1 X104.854 Y108.708 E0.04032
G1 X104.660 Y107.435 E0.04037
G1 X104.564 Y106.419 E0.03201
G1 X104.516 Y104.867 E0.04869
G1 X104.565 Y103.581 E0.04033
G1 X104.660 Y102.565 E0.03200
G1 X104.904 Y101.031 E0.04870
G1 X105.192 Y99.777 E0.04035
G1 X105.477 Y98.797 E0.03200
G1 X106.003 Y97.335 E0.04871
G1 X106.522 Y96.158 E0.04033
G1 X106.985 Y95.249 E0.03200
G1 X107.776 Y93.912 E0.04870
G1 X108.506 Y92.852 E0.04035
G1 X109.263 Y91.886 E0.03848
G1 X109.588 Y92.085 F7200.000
G1 F2100
G1 X110.430 Y91.143 E0.03960
G1 X111.143 Y90.430 E0.03162
G1 X112.281 Y89.426 E0.04758
G1 X113.078 Y88.808 E0.03163
G1 X114.119 Y88.091 E0.03960
G1 X115.425 Y87.318 E0.04759
G1 X116.324 Y86.861 E0.03163
G1 X117.479 Y86.352 E0.03959
G1 X118.908 Y85.838 E0.04760
G1 X120.123 Y85.493 E0.03962
G1 X121.357 Y85.225 E0.03958
G1 X122.606 Y85.035 E0.03963
G1 X123.611 Y84.940 E0.03163
G1 X125.127 Y84.893 E0.04758
G1 X126.135 Y84.925 E0.03163
G1 X127.394 Y85.035 E0.03960
G1 X128.893 Y85.273 E0.04759
G1 X130.123 Y85.556 E0.03960
G1 X131.092 Y85.838 E0.03163
G1 X132.520 Y86.352 E0.04759
G1 X133.446 Y86.752 E0.03162
G1 X134.575 Y87.318 E0.03960
G1 X135.667 Y87.955 E0.03962
G1 X136.715 Y88.658 E0.03959
G1 X137.915 Y89.588 E0.04760
G1 X138.672 Y90.255 E0.03163
G1 X139.570 Y91.143 E0.03961
G1 X140.574 Y92.281 E0.04759
G1 X141.192 Y93.078 E0.03163
G1 X141.909 Y94.119 E0.03960
G1 X142.682 Y95.425 E0.04759
G1 X143.248 Y96.554 E0.03960
G1 X143.742 Y97.716 E0.03959
G1 X144.162 Y98.908 E0.03962
G1 X144.444 Y99.876 E0.03163
G1 X144.775 Y101.357 E0.04757
G1 X144.965 Y102.606 E0.03963
G1 X145.060 Y103.611 E0.03163
G1 X145.107 Y105.128 E0.04758
G1 X145.060 Y106.389 E0.03959
G1 X144.965 Y107.393 E0.03162
G1 X144.727 Y108.893 E0.04760
G1 X144.444 Y110.124 E0.03960
G1 X144.162 Y111.092 E0.03163
G1 X143.648 Y112.521 E0.04759
G1 X143.139 Y113.676 E0.03959
G1 X142.682 Y114.575 E0.03163
G1 X142.045 Y115.667 E0.03962
G1 X141.342 Y116.715 E0.03958
G1 X140.412 Y117.915 E0.04760
G1 X139.570 Y118.857 E0.03960
G1 X138.857 Y119.570 E0.03163
G1 X137.719 Y120.574 E0.04759
G1 X136.922 Y121.192 E0.03163
G1 X135.881 Y121.909 E0.03960
G1 X134.575 Y122.682 E0.04759
G1 X133.676 Y123.139 E0.03163
G1 X132.521 Y123.648 E0.03959
G1 X131.335 Y124.084 E0.03960
G1 X130.934 Y124.209 E0.01317
G1 X129.877 Y124.507 E0.03444
G1 X128.643 Y124.775 E0.03958
G1 X127.647 Y124.933 E0.03163
G1 X126.389 Y125.060 E0.03963
G1 X124.873 Y125.107 E0.04757
G1 X123.611 Y125.060 E0.03959
G1 X122.606 Y124.965 E0.03163
G1 X121.107 Y124.727 E0.04759
G1 X120.123 Y124.507 E0.03162
G1 X118.908 Y124.162 E0.03962
G1 X117.479 Y123.648 E0.04760
G1 X116.324 Y123.139 E0.03959
G1 X115.425 Y122.682 E0.03163
G1 X114.333 Y122.045 E0.03962
G1 X113.285 Y121.342 E0.03959
G1 X112.085 Y120.412 E0.04759
G1 X111.328 Y119.745 E0.03163
G1 X110.430 Y118.857 E0.03960
G1 X109.426 Y117.719 E0.04759
G1 X108.808 Y116.922 E0.03163
G1 X108.091 Y115.881 E0.03961
G1 X107.318 Y114.575 E0.04759
G1 X106.861 Y113.676 E0.03162
G1 X106.352 Y112.520 E0.03959
G1 X105.916 Y111.335 E0.03961
G1 X105.602 Y110.282 E0.03444
G1 X105.493 Y109.877 E0.01317
G1 X105.225 Y108.643 E0.03958
G1 X105.035 Y107.394 E0.03962
G1 X104.940 Y106.389 E0.03163
G1 X104.893 Y104.872 E0.04758
G1 X104.925 Y103.865 E0.03162
G1 X105.035 Y102.606 E0.03960
G1 X105.273 Y101.107 E0.04759
G1 X105.556 Y99.876 E0.03960
G1 X105.838 Y98.908 E0.03163
G1 X106.352 Y97.479 E0.04760
G1 X106.861 Y96.324 E0.03959
G1 X107.318 Y95.425 E0.03163
G1 X108.091 Y94.119 E0.04759
G1 X108.808 Y93.078 E0.03960
G1 X109.550 Y92.131 E0.03773
G1 X109.841 Y92.372 F7200.000
G1 F2100
G1 X110.534 Y91.582 E0.03294
G1 X111.405 Y90.700 E0.03886
G1 X112.517 Y89.720 E0.04647
G1 X113.305 Y89.109 E0.03126
G1 X114.326 Y88.406 E0.03886
G1 X115.602 Y87.652 E0.04648
G1 X116.490 Y87.199 E0.03125
G1 X117.624 Y86.700 E0.03885
G1 X119.019 Y86.198 E0.04648
G1 X120.211 Y85.859 E0.03888
G1 X121.422 Y85.597 E0.03883
G1 X122.406 Y85.441 E0.03125
G1 X123.640 Y85.316 E0.03889
G1 X125.121 Y85.270 E0.04646
G1 X126.118 Y85.301 E0.03125
G1 X127.352 Y85.410 E0.03886
G1 X128.816 Y85.642 E0.04647
G1 X130.024 Y85.920 E0.03886
G1 X130.981 Y86.198 E0.03126
G1 X132.376 Y86.700 E0.04648
G1 X133.510 Y87.199 E0.03885
G1 X134.398 Y87.652 E0.03125
G1 X135.470 Y88.276 E0.03888
G1 X136.499 Y88.966 E0.03885
G1 X137.670 Y89.875 E0.04648
G1 X138.595 Y90.701 E0.03886
G1 X139.300 Y91.405 E0.03125
G1 X140.280 Y92.517 E0.04647
G1 X140.891 Y93.305 E0.03125
G1 X141.594 Y94.326 E0.03886
G1 X142.348 Y95.602 E0.04648
G1 X142.904 Y96.709 E0.03886
G1 X143.389 Y97.849 E0.03885
G1 X143.802 Y99.019 E0.03887
G1 X144.080 Y99.976 E0.03126
G1 X144.403 Y101.422 E0.04646
G1 X144.590 Y102.648 E0.03888
G1 X144.684 Y103.640 E0.03126
G1 X144.730 Y105.122 E0.04647
G1 X144.684 Y106.360 E0.03885
G1 X144.590 Y107.352 E0.03125
G1 X144.358 Y108.816 E0.04648
G1 X144.080 Y110.024 E0.03886
G1 X143.802 Y110.981 E0.03126
G1 X143.300 Y112.376 E0.04648
G1 X142.801 Y113.510 E0.03885
G1 X142.348 Y114.399 E0.03126
G1 X141.724 Y115.470 E0.03888
G1 X141.034 Y116.499 E0.03884
G1 X140.125 Y117.670 E0.04649
G1 X139.300 Y118.595 E0.03886
G1 X138.595 Y119.300 E0.03125
G1 X137.483 Y120.280 E0.04648
G1 X136.695 Y120.891 E0.03125
G1 X135.674 Y121.594 E0.03886
G1 X134.399 Y122.348 E0.04648
G1 X133.510 Y122.801 E0.03126
G1 X132.376 Y123.300 E0.03885
G1 X130.981 Y123.802 E0.04648
G1 X129.789 Y124.141 E0.03888
G1 X128.578 Y124.403 E0.03883
G1 X127.594 Y124.559 E0.03125
G1 X126.360 Y124.684 E0.03889
G1 X124.879 Y124.730 E0.04646
G1 X123.640 Y124.684 E0.03885
G1 X122.648 Y124.590 E0.03126
G1 X121.184 Y124.358 E0.04647
