; generated by Slic3r 1.31.6-prusa3d-win64 on 2017-03-14 at 20:44:02

; external perimeters extrusion width = 0.45mm
; perimeters extrusion width = 0.45mm
; infill extrusion width = 0.45mm
; solid infill extrusion width = 0.45mm
; top infill extrusion width = 0.40mm

M107
M115 U3.0.9 ; tell printer latest fw version
M83  ; extruder relative mode
M104 S215 ; set extruder temp
M140 S55 ; set bed temp
M190 S55 ; wait for bed temp
M109 S215 ; wait for extruder temp
G28 W ; home all without mesh bed level
G80 ; mesh bed leveling
G1 Y-3.0 F1000.0 ; go outside pritn area
G1 X60.0 E9.0  F1000.0 ; intro line
G1 X100.0 E12.5  F1000.0 ; intro line
G21 ; set units to millimeters
G90 ; use absolute coordinates
M83 ; use relative distances for extrusion
G1 E-0.80000 F2100.00000
G1 Z0.200 F7200.000
G1 X118.095 Y99.416 F7200.000
G1 E0.80000 F2100.00000
M204 S1000
G1 F1614.570
G1 X118.594 Y98.850 E0.02365
G1 X119.264 Y98.221 E0.02881
G1 X119.860 Y97.758 E0.02365
G1 X120.636 Y97.266 E0.02882
G1 X121.308 Y96.924 E0.02365
G1 X122.162 Y96.585 E0.02881
G1 X122.887 Y96.375 E0.02366
G1 X123.433 Y96.259 E0.01749
G1 X123.984 Y96.178 E0.01749
G1 X124.902 Y96.120 E0.02881
G1 X125.656 Y96.144 E0.02365
G1 X126.567 Y96.259 E0.02881
G1 X127.304 Y96.424 E0.02365
G1 X127.838 Y96.585 E0.01749
G1 X128.360 Y96.780 E0.01749
G1 X129.192 Y97.171 E0.02881
G1 X129.841 Y97.555 E0.02366
G1 X130.584 Y98.095 E0.02881
G1 X131.150 Y98.594 E0.02366
G1 X131.779 Y99.264 E0.02881
G1 X132.242 Y99.860 E0.02365
G1 X132.734 Y100.636 E0.02881
G1 X132.993 Y101.130 E0.01749
G1 X133.215 Y101.629 E0.01711
G1 X133.475 Y102.350 E0.02403
G1 X133.704 Y103.240 E0.02881
G1 X133.822 Y103.985 E0.02365
G1 X133.880 Y104.902 E0.02881
G1 X133.868 Y105.459 E0.01749
G1 X133.822 Y106.015 E0.01749
G1 X133.704 Y106.761 E0.02366
G1 X133.475 Y107.650 E0.02881
G1 X133.220 Y108.360 E0.02366
G1 X132.829 Y109.192 E0.02881
G1 X132.445 Y109.841 E0.02366
G1 X131.905 Y110.584 E0.02881
G1 X131.406 Y111.150 E0.02365
G1 X130.736 Y111.779 E0.02881
G1 X130.140 Y112.242 E0.02365
G1 X129.364 Y112.734 E0.02881
G1 X128.870 Y112.993 E0.01749
G1 X128.360 Y113.220 E0.01749
G1 X127.650 Y113.475 E0.02366
G1 X126.761 Y113.704 E0.02881
G1 X126.015 Y113.822 E0.02366
G1 X125.098 Y113.880 E0.02881
G1 X124.344 Y113.856 E0.02366
G1 X123.433 Y113.741 E0.02881
G1 X122.685 Y113.573 E0.02403
G1 X122.162 Y113.415 E0.01711
G1 X121.640 Y113.220 E0.01749
G1 X120.808 Y112.829 E0.02881
G1 X120.159 Y112.445 E0.02365
G1 X119.416 Y111.905 E0.02881
G1 X118.850 Y111.406 E0.02366
G1 X118.221 Y110.736 E0.02881
G1 X117.758 Y110.140 E0.02365
G1 X117.266 Y109.364 E0.02881
G1 X117.007 Y108.870 E0.01749
G1 X116.785 Y108.371 E0.01711
G1 X116.525 Y107.650 E0.02403
G1 X116.296 Y106.760 E0.02881
G1 X116.178 Y106.015 E0.02365
G1 X116.120 Y105.098 E0.02882
G1 X116.144 Y104.344 E0.02364
G1 X116.259 Y103.433 E0.02881
G1 X116.424 Y102.696 E0.02366
G1 X116.708 Y101.822 E0.02881
G1 X117.007 Y101.130 E0.02365
G1 X117.450 Y100.325 E0.02881
G1 X117.758 Y99.860 E0.01750
G1 X118.059 Y99.463 E0.01561
G1 X118.393 Y99.647 F7200.000
G1 F1614.570
G1 X118.861 Y99.116 E0.02217
G1 X119.513 Y98.504 E0.02807
G1 X120.072 Y98.070 E0.02216
G1 X120.828 Y97.591 E0.02807
G1 X121.458 Y97.270 E0.02217
G1 X122.290 Y96.940 E0.02807
G1 X122.969 Y96.743 E0.02217
G1 X123.492 Y96.632 E0.01675
G1 X124.020 Y96.553 E0.01674
G1 X124.913 Y96.497 E0.02807
G1 X125.620 Y96.519 E0.02217
G1 X126.508 Y96.632 E0.02807
G1 X127.198 Y96.786 E0.02217
G1 X127.710 Y96.940 E0.01675
G1 X128.210 Y97.126 E0.01675
G1 X129.020 Y97.507 E0.02807
G1 X129.629 Y97.867 E0.02217
G1 X130.353 Y98.393 E0.02807
G1 X130.884 Y98.861 E0.02217
G1 X131.496 Y99.513 E0.02807
G1 X131.930 Y100.072 E0.02217
G1 X132.409 Y100.828 E0.02807
G1 X132.657 Y101.302 E0.01675
G1 X132.869 Y101.778 E0.01637
G1 X133.113 Y102.455 E0.02255
G1 X133.336 Y103.322 E0.02807
G1 X133.447 Y104.020 E0.02217
G1 X133.503 Y104.914 E0.02807
G1 X133.491 Y105.448 E0.01675
G1 X133.447 Y105.980 E0.01675
G1 X133.336 Y106.678 E0.02217
G1 X133.113 Y107.545 E0.02807
G1 X132.874 Y108.211 E0.02217
G1 X132.493 Y109.020 E0.02806
G1 X132.133 Y109.629 E0.02217
G1 X131.607 Y110.353 E0.02807
G1 X131.139 Y110.884 E0.02217
G1 X130.487 Y111.496 E0.02807
G1 X129.928 Y111.930 E0.02217
G1 X129.172 Y112.409 E0.02807
G1 X128.699 Y112.657 E0.01675
G1 X128.211 Y112.874 E0.01675
G1 X127.545 Y113.113 E0.02217
G1 X126.678 Y113.336 E0.02807
G1 X125.980 Y113.447 E0.02217
G1 X125.087 Y113.503 E0.02806
G1 X124.380 Y113.481 E0.02217
G1 X123.492 Y113.368 E0.02807
G1 X122.790 Y113.211 E0.02255
G1 X122.290 Y113.060 E0.01637
G1 X121.790 Y112.874 E0.01674
G1 X120.980 Y112.493 E0.02807
G1 X120.371 Y112.133 E0.02217
G1 X119.647 Y111.607 E0.02807
G1 X119.116 Y111.139 E0.02217
G1 X118.504 Y110.486 E0.02807
G1 X118.070 Y109.928 E0.02217
G1 X117.591 Y109.172 E0.02807
G1 X117.343 Y108.699 E0.01675
G1 X117.131 Y108.222 E0.01637
G1 X116.887 Y107.545 E0.02255
G1 X116.664 Y106.678 E0.02807
G1 X116.553 Y105.980 E0.02217
G1 X116.497 Y105.086 E0.02807
G1 X116.519 Y104.380 E0.02216
G1 X116.632 Y103.492 E0.02807
G1 X116.786 Y102.802 E0.02217
G1 X117.063 Y101.950 E0.02807
G1 X117.343 Y101.301 E0.02217
G1 X117.774 Y100.517 E0.02806
G1 X118.070 Y100.072 E0.01676
G1 X118.357 Y99.694 E0.01487
G1 X118.691 Y99.878 F7200.000
G1 F1614.570
G1 X119.128 Y99.383 E0.02068
G1 X119.763 Y98.786 E0.02732
G1 X120.284 Y98.382 E0.02068
G1 X121.020 Y97.915 E0.02733
G1 X121.608 Y97.616 E0.02068
G1 X122.418 Y97.295 E0.02732
G1 X123.051 Y97.111 E0.02069
G1 X123.551 Y97.004 E0.01601
G1 X124.055 Y96.929 E0.01600
G1 X124.925 Y96.874 E0.02733
G1 X125.585 Y96.895 E0.02069
G1 X126.449 Y97.004 E0.02732
G1 X127.093 Y97.148 E0.02069
G1 X127.582 Y97.295 E0.01601
G1 X128.061 Y97.472 E0.01600
G1 X128.849 Y97.843 E0.02732
G1 X129.417 Y98.179 E0.02069
G1 X130.122 Y98.691 E0.02732
G1 X130.617 Y99.128 E0.02069
G1 X131.214 Y99.763 E0.02732
G1 X131.618 Y100.284 E0.02068
G1 X132.085 Y101.020 E0.02733
G1 X132.321 Y101.473 E0.01601
G1 X132.523 Y101.928 E0.01562
G1 X132.751 Y102.560 E0.02106
G1 X132.968 Y103.404 E0.02733
G1 X133.071 Y104.056 E0.02068
G1 X133.126 Y104.925 E0.02732
G1 X133.115 Y105.436 E0.01601
G1 X133.071 Y105.944 E0.01600
G1 X132.968 Y106.596 E0.02069
G1 X132.751 Y107.440 E0.02732
G1 X132.528 Y108.061 E0.02069
G1 X132.157 Y108.849 E0.02732
G1 X131.821 Y109.417 E0.02069
G1 X131.309 Y110.122 E0.02732
G1 X130.872 Y110.617 E0.02068
G1 X130.237 Y111.214 E0.02732
G1 X129.716 Y111.618 E0.02068
G1 X128.980 Y112.085 E0.02732
G1 X128.392 Y112.384 E0.02068
G1 X127.582 Y112.705 E0.02732
G1 X126.937 Y112.892 E0.02106
G1 X126.449 Y112.996 E0.01563
G1 X125.944 Y113.071 E0.01601
G1 X125.075 Y113.126 E0.02732
G1 X124.415 Y113.105 E0.02069
G1 X123.551 Y112.996 E0.02732
G1 X122.895 Y112.849 E0.02106
G1 X122.418 Y112.705 E0.01564
G1 X121.939 Y112.528 E0.01600
G1 X121.151 Y112.157 E0.02733
G1 X120.583 Y111.821 E0.02068
G1 X119.878 Y111.309 E0.02733
G1 X119.383 Y110.872 E0.02069
G1 X118.786 Y110.237 E0.02733
G1 X118.382 Y109.716 E0.02068
G1 X117.915 Y108.980 E0.02732
G1 X117.679 Y108.527 E0.01601
G1 X117.477 Y108.072 E0.01563
G1 X117.249 Y107.440 E0.02106
G1 X117.032 Y106.596 E0.02733
G1 X116.929 Y105.944 E0.02068
G1 X116.874 Y105.074 E0.02733
G1 X116.895 Y104.415 E0.02068
G1 X117.004 Y103.551 E0.02732
G1 X117.148 Y102.907 E0.02069
G1 X117.417 Y102.078 E0.02733
G1 X117.679 Y101.473 E0.02068
G1 X118.099 Y100.709 E0.02732
G1 X118.382 Y100.284 E0.01601
G1 X118.655 Y99.925 E0.01412
G1 F5760
G1 X118.786 Y99.763 E-0.07247
G1 F5760
G1 X119.017 Y99.501 E-0.12094
G1 F5760
G1 X119.017 Y99.501 E-0.00003
G1 F5760
G1 X119.025 Y99.492 E-0.00417
G1 F5760
G1 X119.128 Y99.383 E-0.05170
G1 F5760
G1 X119.383 Y99.128 E-0.12511
G1 F5760
G1 X119.492 Y99.025 E-0.05170
G1 F5760
G1 X119.501 Y99.017 E-0.00417
G1 F5760
G1 X119.501 Y99.017 E-0.00003
G1 F5760
G1 X119.763 Y98.786 E-0.12094
G1 F5760
G1 X119.878 Y98.691 E-0.05169
G1 F5760
G1 X119.887 Y98.684 E-0.00417
G1 F5760
G1 X119.887 Y98.684 E-0.00003
G1 F5760
G1 X120.163 Y98.470 E-0.12094
G1 F5760
G1 X120.238 Y98.416 E-0.03191
G1 E-0.04000 F2100.00000
G1 X121.314 Y101.951 F7200.000
G1 E0.80000 F2100.00000
G1 F900.000
G1 X121.736 Y101.502 E0.01931
G1 X121.938 Y101.323 E0.00847
G1 X122.437 Y100.961 E0.01931
G1 X122.976 Y100.664 E0.01931
G1 X123.507 Y100.454 E0.01789
G1 X124.104 Y100.301 E0.01931
G1 X124.714 Y100.224 E0.01928
G1 X124.996 Y100.215 E0.00884
G1 X125.599 Y100.254 E0.01897
G1 X126.190 Y100.366 E0.01884
G1 X126.776 Y100.557 E0.01931
G1 X127.024 Y100.664 E0.00847
G1 X127.577 Y100.968 E0.01979
G1 X128.046 Y101.311 E0.01823
G1 X128.498 Y101.735 E0.01944
G1 X128.677 Y101.938 E0.00848
G1 X129.039 Y102.437 E0.01932
G1 X129.331 Y102.967 E0.01897
G1 X129.450 Y103.239 E0.00932
G1 X129.546 Y103.507 E0.00892
G1 X129.703 Y104.118 E0.01979
G1 X129.745 Y104.385 E0.00847
G1 X129.784 Y105.000 E0.01932
G1 X129.746 Y105.604 E0.01897
G1 X129.638 Y106.175 E0.01823
G1 X129.443 Y106.776 E0.01979
G1 X129.336 Y107.024 E0.00847
G1 X129.039 Y107.564 E0.01932
G1 X128.684 Y108.053 E0.01897
G1 X128.498 Y108.265 E0.00884
G1 X128.049 Y108.686 E0.01928
G1 X127.551 Y109.048 E0.01931
G1 X127.318 Y109.186 E0.00847
G1 X126.747 Y109.454 E0.01979
G1 X126.493 Y109.546 E0.00847
G1 X125.882 Y109.703 E0.01979
G1 X125.615 Y109.745 E0.00847
G1 X125.000 Y109.784 E0.01931
G1 X124.385 Y109.745 E0.01931
G1 X123.814 Y109.635 E0.01823
G1 X123.226 Y109.444 E0.01941
G1 X122.967 Y109.331 E0.00885
G1 X122.424 Y109.033 E0.01941
G1 X122.191 Y108.873 E0.00885
G1 X121.714 Y108.478 E0.01944
G1 X121.522 Y108.287 E0.00848
G1 X121.130 Y107.812 E0.01931
G1 X120.808 Y107.304 E0.01884
G1 X120.550 Y106.757 E0.01897
G1 X120.454 Y106.492 E0.00884
G1 X120.297 Y105.882 E0.01976
G1 X120.255 Y105.615 E0.00847
G1 X120.216 Y105.000 E0.01932
G1 X120.254 Y104.396 E0.01897
G1 X120.362 Y103.825 E0.01823
G1 X120.557 Y103.224 E0.01979
G1 X120.664 Y102.976 E0.00847
G1 X120.961 Y102.437 E0.01931
G1 X121.279 Y101.999 E0.01696
G1 X121.023 Y101.710 F7200.000
G1 F900.000
G1 X121.473 Y101.230 E0.02061
G1 X121.702 Y101.028 E0.00959
G1 X122.234 Y100.642 E0.02061
G1 X122.810 Y100.325 E0.02061
G1 X123.396 Y100.093 E0.01975
G1 X124.033 Y99.930 E0.02061
G1 X124.684 Y99.847 E0.02060
G1 X125.002 Y99.838 E0.00996
G1 X125.647 Y99.879 E0.02026
G1 X126.284 Y100.000 E0.02033
G1 X126.909 Y100.204 E0.02061
G1 X127.190 Y100.325 E0.00959
G1 X127.774 Y100.646 E0.02090
G1 X128.292 Y101.024 E0.02010
G1 X128.769 Y101.473 E0.02055
G1 X128.972 Y101.702 E0.00959
G1 X129.358 Y102.234 E0.02062
G1 X129.670 Y102.800 E0.02026
G1 X129.800 Y103.100 E0.01025
G1 X129.907 Y103.396 E0.00986
G1 X130.073 Y104.042 E0.02090
G1 X130.120 Y104.344 E0.00959
G1 X130.162 Y105.000 E0.02062
G1 X130.122 Y105.645 E0.02026
G1 X130.002 Y106.275 E0.02010
G1 X129.796 Y106.909 E0.02090
G1 X129.675 Y107.190 E0.00959
G1 X129.358 Y107.766 E0.02062
G1 X128.979 Y108.289 E0.02026
G1 X128.769 Y108.528 E0.00996
G1 X128.290 Y108.977 E0.02060
G1 X127.758 Y109.364 E0.02061
G1 X127.495 Y109.519 E0.00959
G1 X126.892 Y109.803 E0.02090
G1 X126.604 Y109.907 E0.00959
G1 X125.958 Y110.073 E0.02090
G1 X125.656 Y110.120 E0.00959
G1 X125.000 Y110.162 E0.02061
G1 X124.344 Y110.120 E0.02061
G1 X123.714 Y109.999 E0.02010
G1 X123.092 Y109.797 E0.02053
G1 X122.800 Y109.670 E0.00997
G1 X122.227 Y109.354 E0.02053
G1 X121.964 Y109.175 E0.00997
G1 X121.460 Y108.757 E0.02055
G1 X121.243 Y108.541 E0.00959
G1 X120.824 Y108.034 E0.02061
G1 X120.477 Y107.487 E0.02033
G1 X120.201 Y106.902 E0.02026
G1 X120.093 Y106.603 E0.00996
G1 X119.927 Y105.958 E0.02089
G1 X119.880 Y105.656 E0.00959
G1 X119.838 Y105.000 E0.02062
G1 X119.878 Y104.355 E0.02026
G1 X119.998 Y103.725 E0.02010
G1 X120.204 Y103.091 E0.02090
G1 X120.325 Y102.810 E0.00959
G1 X120.642 Y102.234 E0.02061
G1 X120.988 Y101.758 E0.01844
G1 X120.732 Y101.469 F7200.000
G1 F900.000
G1 X121.210 Y100.959 E0.02192
G1 X121.466 Y100.734 E0.01070
G1 X122.032 Y100.323 E0.02192
G1 X122.644 Y99.986 E0.02192
G1 X123.285 Y99.732 E0.02161
G1 X123.962 Y99.559 E0.02192
G1 X124.655 Y99.471 E0.02191
G1 X125.008 Y99.461 E0.01108
G1 X125.694 Y99.504 E0.02155
G1 X126.378 Y99.634 E0.02181
G1 X127.042 Y99.850 E0.02192
G1 X127.356 Y99.986 E0.01070
G1 X127.971 Y100.324 E0.02202
G1 X128.537 Y100.737 E0.02197
G1 X129.041 Y101.210 E0.02165
G1 X129.266 Y101.466 E0.01071
G1 X129.677 Y102.032 E0.02192
G1 X130.009 Y102.634 E0.02154
G1 X130.268 Y103.285 E0.02197
G1 X130.442 Y103.965 E0.02202
G1 X130.496 Y104.302 E0.01070
G1 X130.540 Y105.000 E0.02192
G1 X130.497 Y105.686 E0.02155
G1 X130.367 Y106.374 E0.02197
G1 X130.150 Y107.042 E0.02202
G1 X130.014 Y107.356 E0.01070
G1 X129.677 Y107.968 E0.02192
G1 X129.274 Y108.524 E0.02155
G1 X129.040 Y108.790 E0.01108
G1 X128.531 Y109.268 E0.02191
G1 X127.966 Y109.679 E0.02192
G1 X127.672 Y109.853 E0.01070
G1 X127.036 Y110.152 E0.02202
G1 X126.715 Y110.268 E0.01070
G1 X126.035 Y110.442 E0.02202
G1 X125.698 Y110.496 E0.01070
G1 X125.000 Y110.540 E0.02192
G1 X124.302 Y110.496 E0.02192
G1 X123.614 Y110.363 E0.02197
G1 X122.958 Y110.150 E0.02164
G1 X122.634 Y110.009 E0.01108
G1 X122.029 Y109.676 E0.02164
G1 X121.737 Y109.477 E0.01108
G1 X121.205 Y109.036 E0.02165
G1 X120.964 Y108.795 E0.01071
G1 X120.518 Y108.256 E0.02192
G1 X120.146 Y107.669 E0.02181
G1 X119.853 Y107.047 E0.02155
G1 X119.732 Y106.715 E0.01108
G1 X119.558 Y106.035 E0.02201
G1 X119.504 Y105.698 E0.01070
G1 X119.460 Y105.000 E0.02192
G1 X119.503 Y104.314 E0.02155
G1 X119.633 Y103.626 E0.02197
G1 X119.850 Y102.958 E0.02202
G1 X119.986 Y102.644 E0.01070
G1 X120.323 Y102.032 E0.02192
G1 X120.696 Y101.517 E0.01993
G1 X121.126 Y101.536 F7200.000
G1 F5760
G1 X121.210 Y100.959 E-0.26272
G1 F5760
G1 X121.466 Y100.734 E-0.11825
G1 F5760
G1 X122.032 Y100.323 E-0.24210
G1 F5760
G1 X122.378 Y100.132 E-0.13693
G1 E-0.04000 F2100.00000
G1 X120.928 Y107.282 F7200.000
G1 E0.80000 F2100.00000
G1 F1291.656
G1 X122.701 Y109.056 E0.08147
G1 F5760
G1 X121.149 Y107.504 E-0.76000
G1 E-0.04000 F2100.00000
G1 X123.666 Y109.468 F7200.000
G1 E0.80000 F2100.00000
G1 F1291.656
G1 X120.791 Y106.593 E0.13206
G1 X120.724 Y106.409 E0.00639
G1 X120.574 Y105.824 E0.01961
G1 X124.165 Y109.415 E0.16498
G1 X124.421 Y109.464 E0.00846
G1 X124.790 Y109.487 E0.01202
G1 X120.513 Y105.210 E0.19652
G1 X120.499 Y105.000 E0.00684
G1 X120.520 Y104.665 E0.01090
G1 X125.335 Y109.480 E0.22119
G1 X125.832 Y109.424 E0.01624
G1 X120.583 Y104.175 E0.24113
G1 X120.636 Y103.895 E0.00927
G1 X120.690 Y103.730 E0.00565
G1 X126.271 Y109.311 E0.25642
G1 X126.684 Y109.172 E0.01416
G1 X120.826 Y103.313 E0.26913
G1 X121.006 Y102.941 E0.01344
G1 X127.060 Y108.995 E0.27812
G1 X127.415 Y108.797 E0.01320
G1 X121.203 Y102.585 E0.28541
G1 X121.435 Y102.265 E0.01285
G1 X127.735 Y108.565 E0.28943
G1 X128.035 Y108.312 E0.01274
G1 X121.688 Y101.965 E0.29158
G1 X121.933 Y101.705 E0.01160
G1 X121.958 Y101.683 E0.00110
G1 X128.317 Y108.042 E0.29216
G1 X128.564 Y107.736 E0.01276
G1 X122.264 Y101.436 E0.28945
G1 X122.584 Y101.203 E0.01285
G1 X128.797 Y107.416 E0.28543
G1 X128.993 Y107.060 E0.01321
G1 X122.940 Y101.007 E0.27810
G1 X123.097 Y100.920 E0.00583
G1 X123.318 Y100.833 E0.00773
G1 X129.173 Y106.688 E0.26898
G1 X129.310 Y106.272 E0.01422
G1 X123.727 Y100.689 E0.25646
G1 X124.168 Y100.578 E0.01477
G1 X129.417 Y105.826 E0.24112
G1 X129.465 Y105.569 E0.00850
G1 X129.480 Y105.337 E0.00756
G1 X124.659 Y100.516 E0.22148
G1 X124.991 Y100.498 E0.01080
G1 X125.208 Y100.512 E0.00706
G1 X129.487 Y104.792 E0.19662
G1 X129.464 Y104.416 E0.01223
G1 X129.426 Y104.178 E0.00784
G1 X125.835 Y100.587 E0.16500
G1 X126.119 Y100.641 E0.00941
G1 X126.596 Y100.796 E0.01630
G1 X129.471 Y103.671 E0.13207
G1 F5760
G1 X127.920 Y102.119 E-0.76000
G1 E-0.04000 F2100.00000
G1 X129.058 Y102.704 F7200.000
G1 E0.80000 F2100.00000
G1 F1291.656
G1 X127.296 Y100.943 E0.08093
M106 S255
M104 S205 ; set temperature
G1 F5760
G1 X128.848 Y102.494 E-0.76000
G1 E-0.04000 F2100.00000
G1 Z0.400 F7200.000
G1 X127.537 Y101.032 F7200.000
G1 E0.80000 F2100.00000
M204 S800
G1 F900.000
G1 X128.014 Y101.382 E0.02001
G1 X128.444 Y101.787 E0.02000
G1 X128.619 Y101.985 E0.00894
G1 X128.976 Y102.478 E0.02060
G1 X129.254 Y102.981 E0.01945
G1 X129.381 Y103.269 E0.01065
