; generated by Slic3r 1.31.6-prusa3d-win64 on 2017-03-14 at 20:46:22

; external perimeters extrusion width = 0.45mm
; perimeters extrusion width = 0.45mm
; infill extrusion width = 0.45mm
; solid infill extrusion width = 0.45mm
; top infill extrusion width = 0.40mm

M107
M115 U3.0.9 ; tell printer latest fw version
M83  ; extruder relative mode
M104 S215 ; set extruder temp
M140 S55 ; set bed temp
M190 S55 ; wait for bed temp
M109 S215 ; wait for extruder temp
G28 W ; home all without mesh bed level
G80 ; mesh bed leveling
G1 Y-3.0 F1000.0 ; go outside pritn area
G1 X60.0 E9.0  F1000.0 ; intro line
G1 X100.0 E12.5  F1000.0 ; intro line
G21 ; set units to millimeters
G90 ; use absolute coordinates
M83 ; use relative distances for extrusion
G1 E-0.80000 F2100.00000
G1 Z0.200 F7200.000
G1 X120.250 Y100.927 F7200.000
G1 E0.80000 F2100.00000
M204 S1000
G1 F900.000
G1 X120.797 Y100.364 E0.02463
G1 X121.233 Y100.003 E0.01774
G1 X121.741 Y99.658 E0.01923
G1 X122.236 Y99.386 E0.01774
G1 X122.799 Y99.142 E0.01922
G1 X123.338 Y98.967 E0.01776
G1 X123.936 Y98.834 E0.01922
G1 X124.497 Y98.763 E0.01775
G1 X125.127 Y98.744 E0.01976
G1 X125.894 Y98.807 E0.02411
G1 X126.449 Y98.913 E0.01774
G1 X127.038 Y99.084 E0.01923
G1 X127.564 Y99.292 E0.01773
G1 X128.111 Y99.570 E0.01923
G1 X128.588 Y99.873 E0.01773
G1 X129.073 Y100.249 E0.01924
G1 X129.636 Y100.797 E0.02463
G1 X129.997 Y101.233 E0.01774
G1 X130.342 Y101.741 E0.01923
G1 X130.614 Y102.236 E0.01774
G1 X130.858 Y102.799 E0.01922
G1 X131.033 Y103.338 E0.01775
G1 X131.166 Y103.936 E0.01922
G1 X131.237 Y104.498 E0.01775
G1 X131.251 Y105.283 E0.02463
G1 X131.193 Y105.894 E0.01923
G1 X131.087 Y106.449 E0.01774
G1 X130.916 Y107.038 E0.01923
G1 X130.708 Y107.564 E0.01773
G1 X130.430 Y108.111 E0.01923
G1 X130.126 Y108.588 E0.01774
G1 X129.750 Y109.073 E0.01924
G1 X129.203 Y109.636 E0.02463
G1 X128.767 Y109.997 E0.01774
G1 X128.259 Y110.342 E0.01923
G1 X127.764 Y110.614 E0.01774
G1 X127.201 Y110.858 E0.01922
G1 X126.663 Y111.033 E0.01775
G1 X126.064 Y111.166 E0.01922
G1 X125.503 Y111.237 E0.01775
G1 X124.890 Y111.257 E0.01923
G1 X124.107 Y111.193 E0.02463
G1 X123.551 Y111.087 E0.01774
G1 X122.962 Y110.916 E0.01923
G1 X122.436 Y110.708 E0.01774
G1 X121.889 Y110.430 E0.01923
G1 X121.412 Y110.127 E0.01774
G1 X120.927 Y109.750 E0.01924
G1 X120.364 Y109.203 E0.02463
G1 X120.003 Y108.767 E0.01774
G1 X119.658 Y108.259 E0.01923
G1 X119.386 Y107.764 E0.01774
G1 X119.142 Y107.201 E0.01922
G1 X118.967 Y106.662 E0.01776
G1 X118.834 Y106.064 E0.01922
G1 X118.763 Y105.502 E0.01775
G1 X118.743 Y104.890 E0.01922
G1 X118.779 Y104.325 E0.01773
G1 X118.875 Y103.719 E0.01924
G1 X119.016 Y103.171 E0.01774
G1 X119.223 Y102.594 E0.01923
G1 X119.464 Y102.082 E0.01774
G1 X119.776 Y101.555 E0.01923
G1 X120.211 Y100.973 E0.02277
G1 X120.407 Y101.328 F7200.000
G1 F900.000
G1 X120.781 Y100.903 E0.01774
G1 X121.176 Y100.532 E0.01699
G1 X121.624 Y100.185 E0.01775
G1 X122.081 Y99.895 E0.01699
G1 X122.586 Y99.638 E0.01775
G1 X123.277 Y99.378 E0.02315
G1 X123.802 Y99.243 E0.01700
G1 X124.361 Y99.154 E0.01775
G1 X125.098 Y99.120 E0.02315
G1 X125.639 Y99.154 E0.01700
G1 X126.198 Y99.243 E0.01775
G1 X126.723 Y99.378 E0.01699
G1 X127.256 Y99.569 E0.01775
G1 X127.746 Y99.800 E0.01700
G1 X128.233 Y100.088 E0.01774
G1 X128.672 Y100.407 E0.01700
G1 X129.097 Y100.781 E0.01774
G1 X129.593 Y101.328 E0.02315
G1 X129.912 Y101.767 E0.01700
G1 X130.200 Y102.254 E0.01774
G1 X130.431 Y102.744 E0.01700
G1 X130.622 Y103.277 E0.01775
G1 X130.757 Y103.802 E0.01699
G1 X130.846 Y104.361 E0.01775
G1 X130.880 Y104.902 E0.01699
G1 X130.846 Y105.639 E0.02315
G1 X130.757 Y106.198 E0.01775
G1 X130.622 Y106.723 E0.01699
G1 X130.431 Y107.256 E0.01775
G1 X130.200 Y107.746 E0.01700
G1 X129.912 Y108.233 E0.01774
G1 X129.593 Y108.672 E0.01700
G1 X129.219 Y109.097 E0.01774
G1 X128.672 Y109.593 E0.02315
G1 X128.233 Y109.912 E0.01700
G1 X127.746 Y110.200 E0.01774
G1 X127.256 Y110.431 E0.01700
G1 X126.723 Y110.622 E0.01775
G1 X126.198 Y110.757 E0.01699
G1 X125.639 Y110.846 E0.01775
G1 X125.098 Y110.880 E0.01699
G1 X124.361 Y110.846 E0.02315
G1 X123.802 Y110.757 E0.01775
G1 X123.277 Y110.622 E0.01699
G1 X122.744 Y110.431 E0.01775
G1 X122.254 Y110.200 E0.01700
G1 X121.767 Y109.912 E0.01774
G1 X121.328 Y109.593 E0.01700
G1 X120.903 Y109.219 E0.01775
G1 X120.407 Y108.672 E0.02315
G1 X120.088 Y108.233 E0.01700
G1 X119.800 Y107.746 E0.01774
G1 X119.569 Y107.256 E0.01700
G1 X119.378 Y106.723 E0.01775
G1 X119.243 Y106.198 E0.01699
G1 X119.154 Y105.639 E0.01775
G1 X119.120 Y105.098 E0.01700
G1 X119.138 Y104.533 E0.01773
G1 X119.206 Y103.995 E0.01701
G1 X119.329 Y103.443 E0.01773
G1 X119.497 Y102.927 E0.01701
G1 X119.722 Y102.408 E0.01773
G1 X119.983 Y101.933 E0.01700
G1 X120.370 Y101.375 E0.02128
G1 X120.705 Y101.559 F7200.000
G1 F900.000
G1 X121.048 Y101.170 E0.01626
G1 X121.426 Y100.815 E0.01625
G1 X121.836 Y100.497 E0.01627
G1 X122.273 Y100.220 E0.01625
G1 X122.735 Y99.984 E0.01626
G1 X123.382 Y99.740 E0.02167
G1 X123.884 Y99.611 E0.01625
G1 X124.396 Y99.530 E0.01626
G1 X125.086 Y99.497 E0.02166
G1 X125.604 Y99.530 E0.01626
G1 X126.116 Y99.611 E0.01626
G1 X126.618 Y99.740 E0.01625
G1 X127.106 Y99.915 E0.01626
G1 X127.575 Y100.136 E0.01625
G1 X128.021 Y100.400 E0.01626
G1 X128.441 Y100.705 E0.01626
G1 X128.830 Y101.048 E0.01626
G1 X129.295 Y101.559 E0.02167
G1 X129.600 Y101.978 E0.01626
G1 X129.864 Y102.425 E0.01626
G1 X130.085 Y102.894 E0.01625
G1 X130.260 Y103.382 E0.01626
G1 X130.389 Y103.884 E0.01625
G1 X130.470 Y104.396 E0.01626
G1 X130.503 Y104.913 E0.01625
G1 X130.470 Y105.604 E0.02167
G1 X130.389 Y106.116 E0.01627
G1 X130.260 Y106.618 E0.01625
G1 X130.085 Y107.106 E0.01627
G1 X129.864 Y107.575 E0.01625
G1 X129.600 Y108.021 E0.01626
G1 X129.295 Y108.441 E0.01626
G1 X128.952 Y108.830 E0.01626
G1 X128.441 Y109.295 E0.02167
G1 X128.021 Y109.600 E0.01626
G1 X127.575 Y109.864 E0.01626
G1 X127.106 Y110.085 E0.01625
G1 X126.618 Y110.260 E0.01626
G1 X126.116 Y110.389 E0.01625
G1 X125.604 Y110.470 E0.01627
G1 X124.913 Y110.503 E0.02167
G1 X124.396 Y110.470 E0.01625
G1 X123.884 Y110.389 E0.01626
G1 X123.382 Y110.260 E0.01625
G1 X122.894 Y110.085 E0.01626
G1 X122.425 Y109.864 E0.01625
G1 X121.978 Y109.600 E0.01626
G1 X121.559 Y109.295 E0.01626
G1 X121.170 Y108.952 E0.01626
G1 X120.705 Y108.441 E0.02167
G1 X120.400 Y108.021 E0.01626
G1 X120.136 Y107.575 E0.01626
G1 X119.915 Y107.106 E0.01625
G1 X119.740 Y106.618 E0.01626
G1 X119.611 Y106.116 E0.01625
G1 X119.530 Y105.604 E0.01626
G1 X119.497 Y105.086 E0.01626
G1 X119.513 Y104.568 E0.01625
G1 X119.578 Y104.054 E0.01626
G1 X119.692 Y103.548 E0.01625
G1 X119.852 Y103.054 E0.01627
G1 X120.058 Y102.579 E0.01625
G1 X120.307 Y102.124 E0.01625
G1 X120.668 Y101.606 E0.01979
G1 X121.003 Y101.790 F7200.000
G1 F900.000
G1 X121.314 Y101.437 E0.01477
G1 X121.675 Y101.098 E0.01551
G1 X122.048 Y100.809 E0.01478
G1 X122.465 Y100.544 E0.01551
G1 X122.885 Y100.330 E0.01478
G1 X123.487 Y100.102 E0.02018
G1 X123.966 Y99.979 E0.01551
G1 X124.432 Y99.905 E0.01478
G1 X125.074 Y99.874 E0.02018
G1 X125.568 Y99.905 E0.01551
G1 X126.034 Y99.979 E0.01478
G1 X126.513 Y100.102 E0.01551
G1 X126.956 Y100.262 E0.01478
G1 X127.404 Y100.472 E0.01551
G1 X127.810 Y100.712 E0.01477
G1 X128.210 Y101.003 E0.01552
G1 X128.563 Y101.314 E0.01478
G1 X128.997 Y101.790 E0.02018
G1 X129.288 Y102.190 E0.01551
G1 X129.528 Y102.596 E0.01477
G1 X129.738 Y103.044 E0.01551
G1 X129.898 Y103.487 E0.01478
G1 X130.021 Y103.966 E0.01551
G1 X130.095 Y104.432 E0.01478
G1 X130.126 Y104.925 E0.01551
G1 X130.095 Y105.568 E0.02018
G1 X130.021 Y106.034 E0.01478
G1 X129.898 Y106.513 E0.01551
G1 X129.738 Y106.956 E0.01478
G1 X129.528 Y107.404 E0.01551
G1 X129.288 Y107.810 E0.01477
G1 X128.997 Y108.210 E0.01551
G1 X128.686 Y108.563 E0.01478
G1 X128.210 Y108.997 E0.02018
G1 X127.810 Y109.288 E0.01551
G1 X127.404 Y109.528 E0.01477
G1 X126.956 Y109.738 E0.01551
G1 X126.513 Y109.898 E0.01478
G1 X126.034 Y110.021 E0.01551
G1 X125.568 Y110.095 E0.01478
G1 X124.925 Y110.126 E0.02018
G1 X124.432 Y110.095 E0.01551
G1 X123.966 Y110.021 E0.01478
G1 X123.487 Y109.898 E0.01551
G1 X123.044 Y109.738 E0.01478
G1 X122.596 Y109.528 E0.01551
G1 X122.190 Y109.288 E0.01477
G1 X121.790 Y108.997 E0.01551
G1 X121.437 Y108.686 E0.01478
G1 X121.003 Y108.210 E0.02018
G1 X120.712 Y107.810 E0.01551
G1 X120.472 Y107.404 E0.01477
G1 X120.262 Y106.956 E0.01551
G1 X120.102 Y106.513 E0.01478
G1 X119.979 Y106.034 E0.01551
G1 X119.905 Y105.568 E0.01478
G1 X119.874 Y105.074 E0.01551
G1 X119.889 Y104.604 E0.01477
G1 X119.951 Y104.113 E0.01552
G1 X120.054 Y103.653 E0.01477
G1 X120.207 Y103.182 E0.01552
G1 X120.394 Y102.750 E0.01477
G1 X120.632 Y102.316 E0.01551
G1 X120.966 Y101.838 E0.01831
G1 F5760
G1 X121.098 Y101.675 E-0.07252
G1 F5760
G1 X121.212 Y101.545 E-0.05983
G1 F5760
G1 X121.314 Y101.437 E-0.05168
G1 F5760
G1 X121.437 Y101.314 E-0.05984
G1 F5760
G1 X121.545 Y101.212 E-0.05168
G1 F5760
G1 X121.558 Y101.201 E-0.00598
G1 F5760
G1 X121.558 Y101.201 E-0.00000
G1 F5760
G1 X121.675 Y101.098 E-0.05385
G1 F5760
G1 X121.790 Y101.003 E-0.05175
G1 F5760
G1 X121.804 Y100.992 E-0.00598
G1 F5760
G1 X121.804 Y100.992 E-0.00000
G1 F5760
G1 X121.927 Y100.897 E-0.05385
G1 F5760
G1 X122.048 Y100.809 E-0.05176
G1 F5760
G1 X122.062 Y100.799 E-0.00598
G1 F5760
G1 X122.062 Y100.799 E-0.00000
G1 F5760
G1 X122.190 Y100.712 E-0.05385
G1 F5760
G1 X122.316 Y100.632 E-0.05169
G1 F5760
G1 X122.465 Y100.544 E-0.05983
G1 F5760
G1 X122.596 Y100.472 E-0.05173
G1 F5760
G1 X122.643 Y100.448 E-0.01817
G1 E-0.04000 F2100.00000
G1 X123.375 Y104.268 F7200.000
G1 E0.80000 F2100.00000
G1 F900.000
G1 X123.560 Y103.951 E0.01150
G1 X123.780 Y103.701 E0.01045
G1 X124.045 Y103.496 E0.01051
G1 X124.344 Y103.344 E0.01051
G1 X124.664 Y103.251 E0.01045
G1 X125.030 Y103.218 E0.01150
G1 X125.429 Y103.269 E0.01261
G1 X125.759 Y103.388 E0.01099
G1 X126.047 Y103.559 E0.01051
G1 X126.299 Y103.780 E0.01051
G1 X126.504 Y104.045 E0.01051
G1 X126.656 Y104.344 E0.01051
G1 X126.750 Y104.666 E0.01051
G1 X126.782 Y105.000 E0.01051
G1 X126.750 Y105.334 E0.01051
G1 X126.656 Y105.656 E0.01051
G1 X126.504 Y105.955 E0.01051
G1 X126.299 Y106.220 E0.01051
G1 X126.047 Y106.441 E0.01051
G1 X125.745 Y106.620 E0.01099
G1 X125.551 Y106.697 E0.00655
G1 X125.349 Y106.749 E0.00655
G1 X125.000 Y106.782 E0.01099
G1 X124.666 Y106.750 E0.01051
G1 X124.344 Y106.656 E0.01051
G1 X124.045 Y106.504 E0.01051
G1 X123.780 Y106.299 E0.01051
G1 X123.559 Y106.047 E0.01051
G1 X123.380 Y105.745 E0.01099
G1 X123.255 Y105.363 E0.01261
G1 X123.219 Y104.998 E0.01150
G1 X123.251 Y104.651 E0.01093
G1 X123.353 Y104.324 E0.01074
G1 X123.002 Y104.186 F7200.000
G1 F900.000
G1 X123.253 Y103.729 E0.01633
G1 X123.521 Y103.425 E0.01271
G1 X123.842 Y103.176 E0.01275
G1 X124.205 Y102.991 E0.01275
G1 X124.594 Y102.878 E0.01271
G1 X125.025 Y102.839 E0.01356
G1 X125.270 Y102.855 E0.00772
G1 X125.528 Y102.904 E0.00824
G1 X125.920 Y103.045 E0.01304
G1 X126.270 Y103.252 E0.01275
G1 X126.575 Y103.521 E0.01275
G1 X126.824 Y103.842 E0.01275
G1 X127.009 Y104.205 E0.01275
G1 X127.122 Y104.595 E0.01275
G1 X127.160 Y105.000 E0.01275
G1 X127.122 Y105.405 E0.01275
G1 X127.009 Y105.795 E0.01275
G1 X126.824 Y106.158 E0.01275
G1 X126.575 Y106.479 E0.01275
G1 X126.270 Y106.748 E0.01275
G1 X125.912 Y106.959 E0.01304
G1 X125.668 Y107.056 E0.00822
G1 X125.414 Y107.121 E0.00822
G1 X125.000 Y107.160 E0.01304
G1 X124.595 Y107.122 E0.01275
G1 X124.205 Y107.009 E0.01275
G1 X123.842 Y106.824 E0.01275
G1 X123.521 Y106.575 E0.01275
G1 X123.252 Y106.270 E0.01275
G1 X123.041 Y105.912 E0.01304
G1 X122.944 Y105.668 E0.00824
G1 X122.882 Y105.429 E0.00772
G1 X122.840 Y104.999 E0.01356
G1 X122.879 Y104.586 E0.01300
G1 X122.980 Y104.241 E0.01126
G1 X122.629 Y104.103 F7200.000
G1 F900.000
G1 X122.694 Y103.937 E0.00559
G1 X122.946 Y103.507 E0.01562
G1 X123.262 Y103.149 E0.01497
G1 X123.640 Y102.856 E0.01498
G1 X124.065 Y102.639 E0.01498
G1 X124.524 Y102.506 E0.01497
G1 X125.020 Y102.461 E0.01562
G1 X125.318 Y102.480 E0.00937
G1 X125.628 Y102.540 E0.00990
G1 X126.081 Y102.703 E0.01509
G1 X126.492 Y102.946 E0.01498
G1 X126.851 Y103.262 E0.01498
G1 X127.144 Y103.640 E0.01498
G1 X127.361 Y104.065 E0.01498
G1 X127.494 Y104.524 E0.01498
G1 X127.539 Y105.000 E0.01498
G1 X127.494 Y105.476 E0.01498
G1 X127.361 Y105.935 E0.01498
G1 X127.144 Y106.360 E0.01498
G1 X126.851 Y106.738 E0.01498
G1 X126.492 Y107.054 E0.01498
G1 X126.078 Y107.299 E0.01509
G1 X125.785 Y107.415 E0.00990
G1 X125.479 Y107.494 E0.00990
G1 X125.000 Y107.539 E0.01509
G1 X124.524 Y107.494 E0.01498
G1 X124.065 Y107.361 E0.01498
G1 X123.640 Y107.144 E0.01498
G1 X123.262 Y106.851 E0.01498
G1 X122.946 Y106.492 E0.01498
G1 X122.701 Y106.078 E0.01509
G1 X122.585 Y105.785 E0.00990
G1 X122.510 Y105.495 E0.00937
G1 X122.461 Y105.000 E0.01562
G1 X122.506 Y104.521 E0.01507
G1 X122.607 Y104.159 E0.01178
G1 X122.804 Y104.071 F7200.000
G1 F5760
G1 X122.694 Y103.937 E-0.08258
G1 F5760
G1 X122.946 Y103.507 E-0.17255
G1 F5760
G1 X123.262 Y103.149 E-0.16537
G1 F5760
G1 X123.640 Y102.856 E-0.16552
G1 F5760
G1 X124.065 Y102.639 E-0.16552
G1 F5760
G1 X124.089 Y102.632 E-0.00846
G1 E-0.04000 F2100.00000
G1 X124.496 Y106.583 F7200.000
G1 E0.80000 F2100.00000
G1 F900.000
G1 X123.781 Y105.867 E0.03547
G1 X123.639 Y105.628 E0.00975
G1 X123.533 Y105.304 E0.01193
G1 X123.503 Y104.993 E0.01095
G1 X125.007 Y106.497 E0.07452
G1 X125.300 Y106.469 E0.01034
G1 X125.513 Y106.408 E0.00777
G1 X123.599 Y104.493 E0.09488
G1 X123.634 Y104.384 E0.00402
G1 X123.804 Y104.102 E0.01153
G1 X125.898 Y106.196 E0.10378
G1 X126.092 Y106.025 E0.00905
G1 X126.193 Y105.895 E0.00578
G1 X124.105 Y103.807 E0.10347
G1 X124.198 Y103.736 E0.00410
G1 X124.490 Y103.596 E0.01135
G1 X126.404 Y105.510 E0.09489
G1 X126.471 Y105.281 E0.00838
G1 X126.497 Y105.007 E0.00964
G1 X124.995 Y103.505 E0.07445
G1 X125.187 Y103.511 E0.00674
G1 X125.354 Y103.543 E0.00595
G1 X125.638 Y103.645 E0.01057
G1 X125.867 Y103.781 E0.00934
G1 X126.583 Y104.497 E0.03549
M106 S255
M104 S205 ; set temperature
G1 F5760
G1 X125.867 Y103.781 E-0.35071
G1 F5760
G1 X125.638 Y103.645 E-0.09229
G1 F5760
G1 X125.354 Y103.543 E-0.10446
G1 F5760
G1 X125.187 Y103.511 E-0.05881
G1 F5760
G1 X124.995 Y103.505 E-0.06662
G1 F5760
G1 X125.173 Y103.682 E-0.08711
G1 E-0.04000 F2100.00000
G1 Z0.400 F7200.000
G1 X125.528 Y106.625 F7200.000
G1 E0.80000 F2100.00000
M204 S800
G1 F900.000
G1 X125.336 Y106.674 E0.00671
G1 X125.000 Y106.706 E0.01143
G1 X124.680 Y106.676 E0.01087
G1 X124.372 Y106.586 E0.01087
G1 X124.086 Y106.441 E0.01087
G1 X123.832 Y106.244 E0.01087
G1 X123.609 Y105.991 E0.01143
G1 X123.501 Y105.821 E0.00681
G1 X123.377 Y105.537 E0.01050
G1 X123.326 Y105.336 E0.00701
G1 X123.294 Y105.000 E0.01143
G1 X123.326 Y104.664 E0.01143
G1 X123.443 Y104.295 E0.01310
G1 X123.609 Y104.009 E0.01118
G1 X123.832 Y103.756 E0.01143
G1 X124.086 Y103.559 E0.01087
G1 X124.372 Y103.414 E0.01087
G1 X124.696 Y103.319 E0.01143
G1 X125.025 Y103.291 E0.01118
G1 X125.409 Y103.342 E0.01310
G1 X125.726 Y103.456 E0.01143
G1 X126.003 Y103.620 E0.01087
G1 X126.244 Y103.832 E0.01087
G1 X126.441 Y104.086 E0.01087
G1 X126.586 Y104.372 E0.01087
G1 X126.676 Y104.680 E0.01087
G1 X126.706 Y105.000 E0.01087
G1 X126.676 Y105.320 E0.01087
G1 X126.586 Y105.628 E0.01087
G1 X126.441 Y105.914 E0.01087
G1 X126.244 Y106.168 E0.01087
G1 X126.003 Y106.380 E0.01087
G1 X125.712 Y106.552 E0.01143
G1 X125.584 Y106.603 E0.00468
M204 S1000
G1 X125.734 Y106.982 F7200.000
M204 S800
G1 F900.000
G1 X125.406 Y107.077 E0.01154
G1 X125.000 Y107.115 E0.01381
G1 X124.604 Y107.078 E0.01347
G1 X124.221 Y106.967 E0.01348
G1 X123.867 Y106.786 E0.01348
G1 X123.552 Y106.542 E0.01348
G1 X123.282 Y106.236 E0.01381
G1 X123.144 Y106.018 E0.00872
G1 X123.046 Y105.812 E0.00774
G1 X122.923 Y105.406 E0.01434
G1 X122.885 Y105.000 E0.01381
G1 X122.923 Y104.594 E0.01381
G1 X122.987 Y104.344 E0.00872
G1 X123.070 Y104.131 E0.00774
G1 X123.282 Y103.764 E0.01434
G1 X123.552 Y103.458 E0.01381
G1 X123.867 Y103.214 E0.01348
G1 X124.221 Y103.033 E0.01348
G1 X124.613 Y102.920 E0.01381
G1 X125.036 Y102.884 E0.01434
G1 X125.264 Y102.900 E0.00774
G1 X125.517 Y102.948 E0.00872
